!!!COM:	L. van Beethoven
!!!OTL:	Op. 59 No. 2 Movement 1 Violin 1
**kern	**dynam
*I"1st Violin	*
*clefG2	*
*k[f#]	*
*e:	*
*M6/8	*
=1	=1
!LO:TX:a:t=Allegro	!
4e' 4b 4ee	f
8r	.
4b' 4bb	.
8r	.
=2!|:	=2!|:
2.r	.
=3	=3
(<8eL	pp
8B	.
8gJ	.
[4.b)	.
=4	=4
(16bLL]	.
16cc	.
16a	.
16f#	.
16d#X	.
16BJJ	.
4e')	.
8r	.
=5	=5
2.r	.
=6	=6
(8fnL	pp
8c	.
8aJ	.
[4.cc)	.
=7	=7
(>16ccLL]	.
16dd	.
16b-X	.
16g	.
16e	.
16cJJ	.
4fn')	.
8r	.
=8	=8
2.r	.
=9	=9
!!linebreak:original
4r	.
8r	.
(8dd#XL	.
8cc	.
[8ff#XJ)	.
=10	=10
2.ff#]	>
=11	=11
(8ff#L	p
8dd#X	.
[8aaJ)	sf
4.aa_	>
=12	=12
2.aa]	p
=13	=13
(8.ggL	<
16eeL	.
16gg	.
16eeJJ	>
[4.dd#X)	.
=14	=14
(16dd#LL]	<
16ee	.
16ff#	.
16ee	.
16gg	.
16eeJJ	[
8ee)	>
4dd#X)	.
=15	=15
(16eeLL	]
16dd#X	.
16ee	.
16ff#	.
16gg	.
16bJJ	.
16ccLL	.
16ddn	.
16ee	.
16g#X	.
16a	.
16bJJ)	.
=16	=16
!!linebreak:original
(>16ccLL	.
16e	.
16fn	.
16gn	.
16a	.
16cJJ	.
16dLL	.
16e	.
16f	.
16g	.
16a	.
16bJJ	.
=17	=17
16ccLL	.
16b	.
16dd	.
16cc	.
16b	.
16aJJ	.
16gLL	.
16fn	.
16e	.
16f	.
16a	.
16ccJJ)	.
=18	=18
!LO:TX:b:i:t=cresc.	!
(8cc	.
[4e)	.
(8eL]	.
8g	.
8f#XJ)	.
=19	=19
4f#X'	f
8r	.
4b' 4bb	.
8r	.
=20	=20
2.r	.
=21	=21
!!linebreak:original
8r	.
8r	.
(8ee	p
4ff#	.
16cccLL	.
16bbJJ)	.
=22	=22
(4bb	.
8ee	.
4ff#	.
16cccLL	.
16bbJJ)	.
=23	=23
8bb	.
8r	.
16r	.
(16b	.
16ccLL	.
16dd	.
16ee	.
16g#X	.
16a	.
16bJJ	.
=24	=24
16ccLL	.
!LO:TX:b:i:t=cresc.	!
16e	.
16fn	.
16gn	.
16a	.
16cJJ	.
16dLL	.
16e	.
16f	.
16g	.
16a	.
16bJJ	.
=25	=25
16ccLL	.
16dd	.
16ee	.
16ffn	.
16gg	.
16aaJJ	.
16bbLL	.
16ccc	.
16ddd	.
16eee)	.
16fffn'	.
16fff'JJ	.
=26	=26
!!linebreak:original
[4.fffn	ff
4fff]	.
8fnT	.
=27	=27
(16e-XLL	.
16g	.
16cc	.
16g	.
16ee-X	.
16ccJJ	.
16ggLL	.
16ee-	.
16ccc	.
16gg)	.
16eee-X'	.
16eee-'JJ	.
=28	=28
[4.ddd	sf
4ddd]	.
8cT	.
16qB/LL	.
16qc/JJ	.
=29	=29
(16B-XLL	.
16d	.
16g	.
16d	.
16b-X	.
16gJJ	.
16ddLL	.
16b-	.
16gg	.
16dd)	.
16bb-X'	.
16bb-'JJ	.
=30	=30
[4.bb-X	sf
4bb-]	.
8c#Xt	.
=31	=31
!!linebreak:original
!LO:TX:b:i:t=sempre	!
(16dLL	.
16a	.
16dd	.
16ccnJ	f
8b-XJ	.
4a	.
8g)	.
=32	=32
(16f#LL	.
16ee-X	.
16cc	.
16cc#X	.
16dd	.
16ggJJ	.
16ff#LL	.
16bb-X	.
16aa	.
16ccc#X	.
16ddd	.
16ccc#JJ)	.
=33	=33
8ddd'L	.
8ddd'	.
8ddd'J	.
8ddd	.
8r	.
8r	.
=34	=34
2.r	.
=35	=35
2.r	.
=36	=36
(8.aaL	p
16ff#L	.
16gg	.
16eeJJ)	.
8dd'L	.
8dd'	.
8dd'J	.
=37	=37
!!linebreak:original
4dd	.
8r	.
4r	.
8r	.
=38	=38
(8.cccL	.
16bbL	.
16aa	.
16gg#XJJ	.
16aaLL	.
16bb	.
16ccc	.
16ddd	.
16eee	.
16dddJJ)	.
=39	=39
(4ddd	.
8gggn	.
4fff#	.
8eeeT)	.
=40	=40
(4ddd	.
8cccT	.
8bb)	.
16rb	.
(16f#LL	.
16g	.
16aJJ)	.
=41	=41
(16gLL	.
16d	.
16g	.
16d	.
16g	.
16dJJ)	.
(16gLL	.
16d	.
16cc	.
16g	.
16cc	.
16gJJ)	.
=42	=42
!!linebreak:original
!LO:TX:b:i:t=cresc.	!
(8ccL	.
8ccc)	.
8cccJ	.
(4.ccc	.
=43	=43
[4.bb)	p
!LO:TX:b:i:t=dolce	!
(16bbLL]	.
16gg#X	.
16aa	.
16ccc)	.
16eee'	.
16eee'JJ	.
=44	=44
(4eee	.
[8ddd)	.
16dddLL]	.
(16fff#	.
16aaa	.
16fff#	.
16ddd	.
16cccJJ)	.
=45	=45
4bb	.
[8b	.
(16bLL]	.
16g#X	.
16a	.
16cc)	.
16ee'	.
16ee'JJ	.
=46	=46
(4ee	.
[8dd)	.
(16ddLL]	.
16ff#	.
16aa	.
16ff#	.
16dd	.
[16ccJJ)	.
=47	=47
!!linebreak:original
(16ccLL]	.
16a#X	.
16cc	.
16b)	.
(16aan	.
16ggnJJ)	.
16r	.
(16anLL	.
16ee	.
16dd#X	.
16ff#	.
16eeJJ)	.
=48	=48
!LO:TX:b:i:t=cresc.	!
(8ee	.
[4g)	.
(8gL]	.
8b)	.
8a'J	.
=49	=49
8.f#L 8.a	f
16f#'L 16a	.
16f#' 16a	.
16f#'JJ 16a	.
8.f#L 8.a	.
16f#'L 16a	sf
16f#' 16a	.
16f#'JJ 16a	.
=50	=50
8.gL 8.b-X	sf
16g'L 16b-	.
16g' 16b-	.
16g'JJ 16b-	.
8.gL 8.b-	.
16g'L 16b-	sf
16g' 16b-	.
16g'JJ 16b-	.
=51	=51
(4f# 4a	>
8cc	]
8bnL	p
!LO:TX:b:i:t=dolce	!
8a	.
8gJ	.
=52	=52
!!linebreak:original
8eL	.
8d	.
8c#XJ	.
4d	.
8cn)	.
=53	=53
8.aL	f
16a'L	.
16a'	.
16a'JJ	.
8.aL	sf
16a'L	.
16g'	.
16gg'JJ	.
=54	=54
8.ggL	.
16gg'L	sf
16ffn'	.
16fffn'JJ	.
8.fffL	.
16fff'L	sf
16eee'	.
16ggg'JJ	.
=55	=55
(4.ggg	.
[4.fffn)	]
=56	=56
(4fff]	p
[8eee	.
4eee]	.
8eee-X)	.
=57	=57
!LO:TX:b:i:t=dolce	!
(16dddLL	.
16ccc#X	.
16cccn	.
16bb	.
16aa	.
16ggJJ	.
16ffnLL	.
16ee	.
16dd	.
16cc	.
16b	.
16aJJ)	.
=58	=58
!!linebreak:original
4g#X	.
[8a	pp
4a]	.
[8f#X	.
=59	=59
8f#]	.
[8gnL	.
8g'J]	.
[8fnL	.
8f'J]	.
[8e	.
=60	=60
8eL]	.
[8G [8g	.
8GJ] 8g]	.
[8GL [8g	.
8G] 8g]	.
[8GJ [8g	.
=61	=61
8G] 8g]	.
!LO:TX:b:i:t=cresc.	!
[8GL [8g	.
8GJ] 8g]	.
[8GL [8g	.
8GJ] 8g]	.
[8G [8g	.
=62	=62
8G] 8g]	.
[8GL [8b-X	.
8GJ] 8b-]	.
[8GL [8b-	.
8GJ] 8b-]	.
[8G [8b-	.
=63	=63
8G] 8b-]	.
[8ddL	.
!LO:TX:b:i:t=piu cresc.	!
8ddJ]	.
[8ddL	.
8ddJ]	.
[8dd	.
=64	=64
!!linebreak:original
8dd]	.
[8ddL [8ddd	f
8ddJ] 8ddd]	.
[8ddL [8ddd	.
8ddJ] 8ddd]	.
8dd' 8ddd	.
=65	=65
(16dddLL	sf
16bbn)	.
16gg'	.
16dd'	.
16b'	.
16g'JJ	.
4.d	.
=66	=66
(16dddLL	sf
16ccc)	.
16aa'	.
16dd'	.
16cc'	.
16a'JJ	.
4.d	.
=67	=67
4r	.
8r	.
(16dddLL	sf
16bb)	.
16gg'	.
16dd'	.
16b'	.
16g'JJ	.
=68	=68
4.d	.
(16dddLL	sf
16ccc)	.
16aa'	.
16dd'	.
16cc'	.
16a'JJ	.
=69	=69
!!linebreak:original
4g	.
8r	.
(16aaLL	sf
16ff#)	.
16dd#X'	.
16b'	.
16a'	.
16f#'JJ	.
=70	=70
4e' 4b 4ee	f
8r	.
4b' 4bb	.
8r	.
=71:|!	=71:|!
4g	.
8r	.
(16aa-XLL	sf
16ffn)	.
16dd'	.
16b-X'	.
16a-X'	.
16fn'JJ	.
=72	=72
4G' 4e-X 4ee-X	ff
8r	.
4b-X' 4bb-X	.
8r	.
=73	=73
2.r	.
=74!|:	=74!|:
4e-X'	p
8r	.
4b-X'	.
8r	.
=75	=75
2.r	.
=76	=76
4d#X'	pp
8r	.
4a#X'	.
8r	.
=77	=77
2.r	.
=78	=78
*^	*
!!linebreak:original
4dn' 4b	4ryy	ff
8rb	8ryy	.
[4.ff#	8f# 8cc#X	sf
.	8rb	.
.	8rb	>
*v	*v	*
=79	=79
2.ff#_	.
=80	=80
2.ff#_	pp
=81	=81
(16ff#LL]	.
16gg	.
16ee	.
16cc#X	.
16a#X	.
16f#JJ	.
4b)	.
8r	.
=82	=82
2.r	.
=83	=83
4r	.
8r	.
4r	.
[8gg	.
=84	=84
(16ggLL]	.
16aa-X	.
16ffn	.
16dd	.
16b	.
16gJJ	.
[4.cc)	.
=85	=85
(8ccL]	.
8a-X	.
8ee-XJ)	.
[4.aa-X	.
=86	=86
!!linebreak:original
(16aa-LL]	.
16ee-X	.
16cc	.
16a-XJJ	.
16e-XLL	.
16cJJ)	.
(8e-L	.
8d-X)	.
8d-'J	.
=87	=87
8dd-XL	.
8b-X	.
8ggJ	.
[4.bb-X	.
=88	=88
16bb-LL]	.
(16gg	.
16dd-X	.
16b-X	.
16g	.
16e-XJJ)	.
(8d-XL	.
8c)	.
8c'J	.
=89	=89
(8ccL	.
8a-X	.
[8ee-XJ)	.
(8ee-L]	.
8cc	.
[8gg-XJ)	.
=90	=90
8ggL	.
(16gg-XL	.
16ee-X	.
16cc	.
16b-XJJ)	.
8an'L	.
(16gg-XL	.
16ee-	.
16cc	.
16aJJ)	.
=91	=91
!!linebreak:original
8b-X'L	.
(16bb-XL	.
16ffn	.
16dd-X	.
16b-JJ)	.
8a'L	.
(16gg-XL	.
16ee-X	.
16cc	.
16aJJ)	.
=92	=92
(16b-XLL	.
16ffn	.
16bb-X	.
16ff	.
16dd-X	.
16b-JJ)	.
(16aLL	.
16ee-X	.
16gg-X	.
16ee-	.
16cc	.
16aJJ)	.
=93	=93
8b-X	pp
4dd-X	.
4dd-	.
[8dd-	.
=94	=94
8dd-]	.
4dd-X	.
4dd-	.
[8dd-	.
=95	=95
!LO:TX:b:i:t=cresc.	!
8dd-]	.
4dd-X	.
4dd-	.
[8dd-X	.
=96	=96
8dd-]	.
4dd-X	.
4dd-	.
[8dd-	.
=97	=97
!!linebreak:original
8dd-]	.
4cc#X 4ee	.
4cc# 4ee	.
[8cc# [8ee	.
=98	=98
8cc#] 8ee]	.
4cc#X 4aa#X	f
4cc# 4aa#	.
8cc# 8aa#	.
=99	=99
8ddnL 8bb	.
(16bbL	p
16ff#	.
16dd	.
16bJJ)	.
8a#XL	.
(16ggL	.
16ee	.
16cc#X	.
16a#JJ)	.
=100	=100
(16bLL	.
16ff#	.
16bb	.
16ff#	.
16dd	.
16bJJ)	.
(16a#XLL	.
16ee	.
16gg	.
16ee	.
16cc#X	.
16a#JJ)	.
=101	=101
8b	pp
4dd	.
4dd	.
[8dd	.
=102	=102
8dd]	.
4dd	.
4dd	.
[8dd	.
=103	=103
!!linebreak:original
8dd]	.
!LO:TX:b:i:t=cresc.	!
4dd	.
4dd	.
[8dd	.
=104	=104
8dd]	.
4dd	.
4dd	.
[8dd	.
=105	=105
8dd]	.
4dd	.
4dd	.
[8dd	.
=106	=106
8dd]	.
4ffn	.
4ff	.
!LO:TX:b:i:t=il	!
[8ff	.
=107	=107
8ff]	.
4ffn	f
4ff	.
!LO:TX:b:i:t=piu	!
[8ff	.
=108	=108
8ff]	.
4bb	f
4bb	.
8bb	.
=109	=109
16cccLL	ff
16bb	.
16ccc	.
16eee	.
16ddd	.
16cccJJ	.
16bbLL	.
16ccc	.
16bb	.
16aa	.
!LO:TX:b:i:t=sempre	!
16gg	.
16aaJJ	.
=110	=110
!!linebreak:original
16ggLL	ff
16ffn	.
16ee	.
16ff	.
16ee	.
16ddJJ	.
16ccLL	.
16dd	.
16cc	.
16b	.
16a	.
16bJJ	.
=111	=111
4cc'	.
8r	.
4gg'	.
8r	.
=112	=112
4r	.
8r	.
4r	.
8gg#X	.
=113	=113
16aaLL	.
16gg#X	.
16aa	.
16ccc	.
16bb	.
16aaJJ	.
16gg#XLL	.
16aa	.
16gg#	.
16ffn	.
16ee	.
16ffJJ	.
=114	=114
16eeLL	.
16dd	.
16cc	.
16dd	.
16cc	.
16bJJ	.
16aLL	.
16b	.
16a	.
16g#X	.
16f#X	.
16g#JJ	.
=115	=115
!!linebreak:original
4a'	.
8r	.
4ee'	.
8r	.
=116	=116
2.r	.
=117	=117
8.r	.
(16aLL	pp
16cc	.
16aJJ	.
[4.g#X)	.
=118	=118
(16g#LL]	.
16a	.
16b	.
16a	.
16cc	.
16aJJ	.
4.g#X)	.
=119	=119
(16aLL	.
16g#X	.
16a	.
16b	.
16cc	.
16eJJ	.
16fnLL	.
16gn	.
16aJJ)	.
16r	.
8r	.
=120	=120
!LO:TX:b:i:t=sempre	!
16r	.
(>16aLL	.
16b-X	.
16cc	.
16dd	p
16fnJJ	.
16gLL	.
16a	.
16b-X	.
16cc	.
16dd	.
16ee-XJJ	.
=121	=121
!!linebreak:original
16ffnLL	.
16een	.
16gg	.
16ff	.
16ee-X	.
16ddJJ	.
16ccLL	.
16b-X	.
16a	.
16b-	.
16dd	.
16ffJJ)	.
=122	=122
(8ffn	.
[4a)	.
(<8aL]	.
8cc	.
8bnJ)	.
=123	=123
!LO:TX:b:i:t=poco ritard	!
(4.cc	<
4.b)	>
=124	=124
[4.cc	<
(16ccLL]	>
16b	.
16cc	.
16b	]
16dd	.
16bJJ	.
=125	=125
4cc)	.
!LO:TX:a:t=a tempo	!
8r	.
4r	.
8r	.
=126	=126
!!linebreak:original
4r	.
8r	.
8.r	.
(16ffnLL	.
16gg	.
16aaJJ	.
=127	=127
!LO:TX:b:i:t=cresc.	!
16bb-XLL	.
16ffn	.
16gg	.
16aa	.
16bb-	.
16ffJJ	.
16ggLL	.
16aa	.
16bb-	.
16ff	.
16gg	.
16aaJJ	.
=128	=128
16bb-XLL	.
16ffn	.
16gg	.
16aa	.
16bb-	.
16ffJJ	.
16ggLL	.
16aa	.
16bb-	.
16ff	.
16gg	.
16aaJJ)	.
=129	=129
[4.bb-X	ff
4bb-]	.
8A-Xt	.
=130	=130
(16GLL	.
16Bn	.
16d	.
16B	.
16g	.
16dJJ	.
16bLL	.
16g	.
16dd	.
16b)	.
16gg'	.
16gg'JJ	.
=131	=131
!!linebreak:original
[4.ccc	sf
4ccc]	.
8B-XT	.
=132	=132
(16ALL	.
16c#X	.
16e	.
16c#	.
16a	.
16eJJ	.
16cc#XLL	.
16a	.
16ee	.
16cc#)	.
16aa'	.
16aa'JJ	.
=133	=133
[4.ddd	sf
4ddd]	.
8cnT	.
=134	=134
(16BLL	.
16d#X	.
16f#X	.
16d#	.
16b	.
16f#JJ	.
16dd#XLL	.
16b	.
16ff#X	.
16dd#)	.
16bb'	.
16bb'JJ	.
=135	=135
[4.eee	ff
4eee]	.
(8dddnT	.
16qqccc/LL	.
16qddd/JJ	.
=136	=136
!!linebreak:original
8ccc)	.
8r	.
(8bbt	.
16qqaa/LL	.
16qqbb/JJ	.
8aa)	.
8r	.
(8ggT	.
16qqff#X/LL	.
16qqgg/JJ	.
=137	=137
[4.ff#)	sf
4ff#]	.
(8eeT	.
16qqdd#X/LL	.
16qqee/JJ	.
=138	=138
8dd#X)	.
8r	.
(8dd#t	.
16qqcc#X/LL	.
16qdd#X/JJ	.
8ee)	.
8r	.
(8a#Xt	.
16qg##X/LL	.
16qqa#X/JJ	.
=139	=139
8b)	.
8r	.
(8bt	.
16qqan/LL	.
16qqb/JJ	.
8ccn)	.
8r	.
(8f#t	.
16qqe/LL	.
16qqf#X/JJ	.
=140	=140
8g)	.
8r	.
(8gT	.
16qqf#X/LL	.
16qqg/JJ	.
8a)	.
8r	.
(8d#Xt	.
16qqc#X/LL	.
16qqd#X/JJ	.
=141	=141
!!linebreak:original
16eLL)	.
16g	ff
16f#	.
16e	.
16d#X	.
16eJJ	.
4d#')	.
8r	.
=142	=142
(16dd#XLL	p
16ff#	.
16ee	.
16dd#	.
16cc#X	.
16dd#JJ)	.
(16aaLL	.
16cccn	.
16bb	.
16aa	.
16gg	.
16ff#JJ)	.
=143	=143
4e 4b 4ee	ff
8r	.
4b' 4bb	.
8r	.
=144	=144
(16d#XLL	p
16f#	.
16e	.
16d#	.
16c#X	.
16d#JJ)	.
(16aLL	.
16ccn	.
16b	.
16a	.
16g	.
16f#JJ)	.
=145	=145
!!linebreak:original
(8eL	.
8B	pp
8gJ	.
[4.b)	.
=146	=146
(16bLL]	.
16cc	.
16a	.
16f#	.
16d#X	.
16BJJ	.
4e')	.
8r	.
=147	=147
2.r	.
=148	=148
(8fnL	pp
8c	.
8aJ	.
[4.cc)	.
=149	=149
(>16ccLL]	.
16dd	.
16b-X	.
16g	.
16e	.
16cJJ	.
4fn')	.
8r	.
=150	=150
2.r	.
=151	=151
4r	.
8r	.
(8dd#XL	.
8cc	.
[8ff#J)	sf
=152	=152
2.ff#]	>
=153	=153
!!linebreak:original
(8ff#L	p
8dd#X	.
[8aaJ)	sf
4.aa_	.
=154	=154
2.aa]	]
=155	=155
(8.ggL	<
16eeL	.
16gg	.
16eeJJ	[
[4.dd#X)	>
=156	=156
(16dd#LL]	<
16ee	.
16ff#	.
16ee	.
16gg	.
16eeJJ	>
4.dd#X)	.
=157	=157
!LO:TX:b:i:t=sempre	!
(16eeLL	]
16dd#X	.
16ee	.
16ff#	p
16gg	.
16bJJ	.
16ccLL	.
16ddn	.
16ee	.
16g#X	.
16a	.
16bJJ	.
=158	=158
8cc')	.
8r	.
8r	.
4r	.
8r	.
=159	=159
2.r	.
=160	=160
2.r	.
=161	=161
!!linebreak:original
16r	.
!LO:TX:b:i:t=cresc.	!
(16b-XLL	.
16a	.
16g	.
16fn	.
16ddJJ	.
16ccLL	.
16b-	.
16a	.
16bb-X	.
16aa	.
16ggJJ)	.
=162	=162
(16ffnLL	f
16ddd	.
16ccc	.
16bb-X	.
16aa	.
16bb-JJ)	.
(16aaLL	.
16gg#X	.
16aa	.
16ggn	.
16ff	.
16eeJJ)	.
=163	=163
(16ddLL	ff
16G	.
16d	.
16Bn	.
16g	.
16dJJ	.
16bLL	.
16g	.
16dd	.
16b)	.
16gg'	.
16gg'JJ	.
=164	=164
!!linebreak:original
[4.gg	sf
4gg]	.
(8gT	.
16qqfn/LL	.
16qqg/JJ	.
=165	=165
16fn'LL)	.
(16G#X	.
16d	.
16B	.
16f	.
16dJJ	.
16bLL	.
16f	.
16dd	.
16b)	.
16ffn'	.
16ff'JJ	.
=166	=166
[4.ee	sf
4ee]	.
(8eT	.
16qd#X/LL	.
16qqe/JJ	.
=167	=167
4d#X)	.
8r	.
8r	.
8r	.
8ff#X	.
=168	=168
[4.gg	ff
4gg]	.
(8eeT	.
=169	=169
16dd#XLL)	.
(16f#	.
16b	.
16aJ	.
8gJ)	.
(4f#	.
8e)	.
=170	=170
!!linebreak:original
16d#X'	.
(>16ccLL	.
16a	.
16a#X	.
16b	.
16eeJJ	.
16dd#XLL	.
16gg	.
16ff#X	.
16aa#X	.
16bb	.
16aa#JJ)	.
=171	=171
8bb'L	.
8bb'	.
8bb'J	.
4bb	.
8r	.
=172	=172
2.r	.
=173	=173
2.r	.
=174	=174
(8.ff#L	p
16dd#XL	.
16ee	.
16cc#XJJ)	.
8bL	.
8b	.
8bJ	.
=175	=175
4b	.
8r	.
4r	.
8r	.
=176	=176
(8.aaL	.
16ff#L	.
16gg#X	.
16eeJJ)	.
8dd#XL	.
8dd#	.
8dd#J	.
=177	=177
!!linebreak:original
4dd#X	.
8r	.
4r	.
8r	.
=178	=178
(8.bL	.
16dd#XL	.
16cc#X	.
16eeJJ	.
8.dd#L	.
16ff#L	.
16ee#X	.
16gg#XJJ)	.
=179	=179
4ff#	.
8r	.
4r	.
8r	.
=180	=180
(8.dd#XL	.
16ff#L	.
16ee#X	.
16gg#XJJ	.
16ff#LL	.
16gg#	.
16aa	.
16bb	.
16ccc#X	.
16bbJJ)	.
=181	=181
(4bb	.
8eeen	.
4ddd#X	.
8ccc#XT)	.
=182	=182
(4bb	.
8aaT	.
8gg#X)	.
16r	.
(16d#XLL	.
16e	.
16f#JJ	.
=183	=183
!!linebreak:original
16eLL	.
16B	.
16e	.
16B	.
16e	.
16BJJ)	.
16eLL	.
(16e	.
16a	.
16e	.
16a	.
16eJJ)	.
=184	=184
!LO:TX:b:i:t=cresc.	!
(8aL	.
8aa)	.
8aaJ	.
4.aa	.
=185	=185
[4.gg#X	p
!LO:TX:b:i:t=dolce	!
(16gg#LL]	.
16ee#X	.
16ff#	.
16aa)	.
16ccc#X'	.
16ccc#'JJ	.
=186	=186
(4ccc#X	.
[8bb)	.
(16bbLL]	.
16ddd#X	.
16fff#	.
16ddd#	.
16bb	.
16aaJJ)	.
=187	=187
(4gg#X	.
[8g#X)	.
(16g#LL]	.
16e#X	.
16f#	.
16a)	.
16cc#X'	.
16cc#'JJ	.
=188	=188
!!linebreak:original
(4cc#X	.
[8b)	.
(16bLL]	.
16dd#X	.
16ff#	.
16dd#	.
16b	.
[16aJJ)	.
=189	=189
(16aLL]	.
16f##X	.
16a	.
16g#X	.
16ff#X	.
16eenJJ)	.
16r	.
(>16f#XLL	.
16cc#X	.
16b#X	.
16dd#X	.
16cc#JJ)	.
=190	=190
!LO:TX:b:i:t=cresc.	!
(8cc#X	.
[4e)	.
(8eL]	.
8g#X)	.
8f#'J	.
=191	=191
8.d#XL 8.f#	f
16d#'L 16f#	.
16d#' 16f#	.
16d#'JJ 16f#	.
8.d#L 8.f#	.
16d#'L 16f#	sf
16d#' 16f#	.
16d#'JJ 16f#	.
=192	=192
8.gnL	sf
16g'L	.
16g'	.
16g'JJ	.
8.gL	.
16g'L	sf
16g'	.
16g'JJ	.
=193	=193
!!linebreak:original
[4.f#X	>
(8f#L]	p
8B)	.
!LO:TX:b:i:t=dolce	!
[8AJ	.
=194	=194
(8AL]	.
8B)	.
8c#X'J	.
(4B	.
8d#X)	.
=195	=195
8.f#L	f
16f#'L	.
16f#'	.
16f#'JJ	.
8.f#L	.
16f#L	sf
16e	.
16eeJJ	.
=196	=196
8.eeL	sf
16eeL	.
16ddn	.
16dddJJ	.
8.dddL	sf
16dddL	.
16ccc#X	.
16eeeJJ	.
=197	=197
(4.eee	>
[4.ddd)	.
=198	=198
(4ddd]	]
[8ccc#X	p
4ccc#]	.
8cccn)	.
=199	=199
!LO:TX:b:i:t=dolce	!
(>16bbLL	.
16aa	.
16gg#X	.
16ff#	.
16ee	.
16dd#XJJ	.
16ddnLL	.
16cc#X	.
16b	.
16a	.
16g#X	.
16f#JJ)	.
=200	=200
!!linebreak:original
(4e#X	pp
[8f#X)	.
4f#]	.
[8d#X	.
=201	=201
8d#]	.
[8eL	.
8eJ]	.
[8dnL	.
8dJ]	.
[8c#X	.
=202	=202
8c#]	.
[8eL	.
8eJ]	.
[8eL	.
8eJ]	.
[8e	.
=203	=203
8e]	.
!LO:TX:b:i:t=cresc.	!
[8eL	.
8eJ]	.
[8eL	.
8eJ]	.
[8e	.
=204	=204
8e]	.
[8gL	.
8gJ]	.
[8gL	.
8gJ]	.
[8g	.
=205	=205
!LO:TX:b:i:t=piu	!
8g]	.
!LO:TX:b:i:t=cresc.	!
[8bL	.
8bJ]	.
[8bL	.
8bJ]	.
[8b	.
=206	=206
!!linebreak:original
8b]	.
[8bL [8bb	f
8bJ] 8bb]	.
[8bL [8bb	.
8bJ] 8bb]	.
8b 8bb	.
=207	=207
(16bbLL	.
16gg#X)	sf
16ee'	.
16b'	.
16g#X'	.
16e'JJ	.
4.B	.
=208	=208
(16bbLL	sf
16aa)	.
16ff#'	.
16b'	.
16a'	.
16f#'JJ	.
4.B	.
=209	=209
4r	.
8r	.
(16bbLL	sf
16gg#X)	.
16ee'	.
16b'	.
16g#X'	.
16e'JJ	.
=210	=210
4.B	.
(16bbLL	sf
16aa)	.
16ff#'	.
16b'	.
16a'	.
16f#'JJ	.
=211	=211
!!linebreak:original
(16bbLL	sf
16gg#X)	.
16ee'	.
16b'	.
16g#X'	.
16e'JJ	.
(16bLL	.
16a-X)	p
16fn'	.
16b'	.
16g#'	.
16f'JJ	.
=212	=212
16b'LL	.
16a-X'	.
16fn'	.
16b'	.
16a-'	.
16fn'JJ	.
(16b-XLL	.
16a-)	.
16f'	.
16d'	.
16B-X'	.
16A-X'JJ	.
=213	=213
4Gn' 4e-X 4ee-X	f
8r	.
4b-X' 4bb-X	.
8r	.
=214	=214
2.r	.
=215:|!	=215:|!
4G 4en	.
8r	.
(>16ffnLL	.
16dd)	.
16b'	.
16g'JJ	.
16fn'LL	.
16d'JJ	.
=216	=216
!!linebreak:original
4G' 4e 4cc	ff
8r	.
4dd' 4gg	.
8r	.
=217	=217
2.r	.
=218	=218
4c	p
8r	.
4g	.
8r	.
=219	=219
2.r	.
=220	=220
(<4c'	pp
8r	.
4g')	.
8r	.
=221	=221
2.r	.
=222	=222
4B 4g#X	f
8r	.
[4.dd#X	f
=223	=223
2.dd#_	>
=224	=224
2.dd#_	]
=225	=225
2.dd#_	p
=226	=226
!LO:TX:b:i:t=piu	!
2.dd#]	p
=227	=227
[2.ee	.
=228	=228
2.ee]	.
=229	=229
2.dd	.
=230	=230
!!linebreak:original
2.cc	.
=231	=231
2.b	.
=232	=232
(4.cc	.
4.a	.
=233	=233
4.g	.
4.f#X)	.
=234	=234
8f#	pp
4f#	.
4f#	.
[8f#	.
=235	=235
8f#]	.
4f#	.
4f#	.
[8f#	.
=236	=236
8f#]	.
!LO:TX:b:i:t=cresc.	!
4a	.
4a	.
[8a	.
=237	=237
8a]	.
4cc	.
4dd#X	.
[8ff#	.
=238	=238
8ff#]	.
4aa	.
4ccc	.
[8aa	.
=239	=239
8aa]	.
4ff#	ff
4dd#X	.
[8cc	.
=240	=240
!!linebreak:original
8cc]	.
4a	.
4f#	.
[8d#X	.
=241	=241
8d#]	.
4c	.
4d#X 4cc	.
[8d# [8cc	.
=242	=242
8d#] 8cc]	.
4d#X 4cc	.
4d# 4cc	.
8d# 8cc	.
=243	=243
2.d#X 2.cc	ff
=244	=244
[2.d#X [2.cc	ff
=245	=245
2.d#_ 2.cc_	>
=246	=246
(16dLL 16cc]	]
16b	p
16a#X	.
16b	.
16dd#X	.
16ff#JJ	.
16aanLL	.
16gg	.
16ff#	.
16aa	.
16ccc	.
16dd#XJJ)	.
=247	=247
8.eeL	pp
(16eeL	.
16gg	.
16eeJJ)	.
[4.dd#X	.
=248	=248
16dd#LL]	.
(16ee	.
16ff#	.
16ee	.
16gg	.
16eeJJ	.
4.dd#X)	.
=249	=249
!!linebreak:original
(16eeLL	.
16dd#X	.
16ee	.
16ff#	.
16gg	.
16bJJ	.
16ccLL	.
16ddn	.
16ee	.
16g#X	.
16a	.
16bJJ)	.
=250	=250
(16ccLL	.
16e	.
16fn	.
16g	.
16a	.
16cJJ	.
16dLL	.
16e	.
16f	.
16g	.
16a	.
16bJJ)	.
=251	=251
(>16ccLL	.
16b	.
16dd	.
16cc	.
16b	.
16aJJ	.
16gLL	.
16fn	.
16e	.
16f	.
16a	.
[16ccJJ)	.
=252	=252
!!linebreak:original
!LO:TX:b:i:t=cresc.	!
16ccLL]	.
(16e	.
16d#X	.
16e	.
16g	.
[16bJJ)	.
(<16bLL]	.
16b	.
16a#X	.
16b	.
16dd#X	.
[16ff#JJ)	.
=253	=253
(16ff#LL]	.
16ee	.
16dd#X	.
16ee	.
16gg	.
16bbJJ)	.
16ccc'LL	.
(16ffn	.
16ee	.
16ff	.
16aa	.
[16cccJJ)	.
=254	=254
(16cccLL]	.
16ee	.
16dd#X	.
16ee	.
16gg	.
[16bbJJ)	.
(16bbLL]	.
16dd#X	.
16cc#X	.
16dd#	.
16ff#	.
[16bbJJ)	.
=255	=255
(16bbLL]	.
16ee	.
16dd#X	.
16ee	.
16gg	.
16bbJJ)	.
16cccnLL	.
(16ffn	.
16ee	.
16ff	.
16aa	.
[16cccJJ)	.
=256	=256
!!linebreak:original
16cccLL]	.
16bb	.
16aa#X	.
16bb	.
16eee	.
16gggJJ	.
4aaan	f
8dd#X'	.
=257	=257
(8eeL	ff
8b	.
8ggJ)	.
[4.b [4.bb	.
=258	=258
(16bLL] 16bb]	.
16ccc	.
16aa	.
16ff#	.
16dd#X	.
16bJJ)	.
!LO:TX:b:i:t=dim.	!
16ee'LL	.
(>16cc	.
16a	.
16f#JJ	.
16d#XLL	.
16BJJ)	.
=259	=259
(16eLL	.
16cc	p
16a	.
16f#	.
16d#X	.
16BJJ)	.
(16eLL	.
16cc	.
16a	.
16f#	.
16d#	.
16BJJ)	.
=260	=260
4e	.
8r	.
4e	.
8r	.
=261	=261
4G 4e	.
8r	.
4r	.
8r	.
==262	==262
!!linebreak:original
*k[f#c#g#d#]	*
*E:	*
*M4/4	*
*met(c)	*
!LO:TX:a:B:t=Molto Adagio	!
2e	p
2d#	p
=263	=263
2f#	p
2e	.
=264	=264
(2a	p
4g#	.
8.bL	.
16aJk)	.
=265	=265
(2g#	.
4f#)	.
4r	.
=266	=266
(<2b	.
2a	.
=267	=267
!LO:TX:b:i:t=cresc.	!
2f#	.
2g#)	.
=268	=268
2e	f
4..f#X	>
16g#X	.
=269	=269
4e	]
4r	p
4r	.
[8BL	.
16B'L]	.
16B'JJ	.
=270	=270
!!linebreak:original
4B	.
[8bL	.
16b'L]	.
16b'JJ	.
[8aL	.
16a'L]	.
16g#'JJ	.
[8f#L	.
16f#'L]	.
16e'JJ	.
=271	=271
4d#	.
[8cc#L	.
16cc#'L]	.
16cc#'JJ	.
[8cc#L	.
16cc#'L]	.
16b'JJ	.
[8eeL	.
16ee'L]	.
16gg#'JJ	.
=272	=272
[8gg#L	.
16gg#'L]	.
16ff#'JJ	.
[8eeL	.
16ee'L]	.
16dd#'JJ	.
[8eeL	.
16ee'L]	.
16e'JJ	.
[8d#L	.
16d#'L]	.
16e'JJ	.
=273	=273
!!linebreak:original
[8eL	.
16e'L]	.
16f#'JJ	.
[8g#L	.
16g#'L]	.
16a#X'JJ	.
[8a#L	.
16a#'L]	.
16b'JJ	.
[8bL	.
16b'L]	.
16b'JJ	.
=274	=274
[8bL	.
16b'L]	.
16b#X'JJ	.
[8b#L	.
16b#'L]	.
16cc#'JJ	.
[8cc#L	.
16cc#'L]	.
16dd#'JJ	.
[8eeL	.
16ee'L]	.
16ff#'JJ	.
=275	=275
!LO:TX:b:i:t=cresc.	!
[8gg#L	.
16gg#'L]	.
16gg#'JJ	.
[8aanL	.
16aa'L]	.
16gg#'JJ	.
[8gg#L	.
16gg#'L]	.
16ff#'JJ	.
[8eeL	.
16ee'L]	.
16dd#'JJ	.
=276	=276
!!linebreak:original
[8eeL	.
16ee'L]	f
16cc#'JJ	.
[8bnL	.
16b'L]	.
16a#X'JJ	.
[8anL	.
16a'L]	>
16f#'JJ	.
[8d#L	.
16d#'L]	.
16B'JJ	.
=277	=277
8e'L	]
16r	p
16g#'k	.
8e'	.
16r	.
16g#'Jk	.
8B'L	.
16r	.
16g#'k	.
8e'	.
16r	.
16g#'Jk	.
=278	=278
!LO:TX:b:i:t=espress.	!
8B'L	.
!LO:TX:a:i:t=sempre staccato	!
16r	.
16a'k	.
8f#'	.
16r	.
16a'Jk	.
8B'L	.
16r	.
16a'k	.
8f#'	.
16r	.
16a'Jk	.
=279	=279
!!linebreak:original
!LO:TX:a:i:t=espress.	!
8B'L	.
16r	.
16g#'k	.
8e'	.
16r	.
16g#'Jk	.
8B'L	.
16r	.
16g#'k	.
8e'	.
16r	.
16g#'Jk	.
=280	=280
!LO:TX:b:i:t=espress.	!
8B'L	.
16r	.
16f#'k	.
8d#'	.
16r	.
16f#'Jk	.
8B'L	.
16r	.
16a'k	.
8f#'	.
16r	.
16a'Jk	.
=281	=281
8B'L	.
16r	.
16e'k	.
8B'	.
16r	.
16e'Jk	.
8G#'L	.
16r	.
16ek	.
8c#'	.
16r	.
16e'Jk	.
=282	=282
(<2g#	.
2b#X)	.
=283	=283
!!linebreak:original
!LO:TX:b:i:t=cresc.	!
(2.cc#	.
8.dd#L	.
16eeJk)	.
=284	=284
!LO:TX:a:t=ten.	!
4cc# 4ee	f
8.ff#L	.
16eeJk	p
8.dd#L	.
16cc#k	.
8.bn	.
16cc#Jk	.
=285	=285
(8.a#XL	<
16gg#k)	.
8.ff#	>
16eeJk	.
8.dd#L	]
16cc#k	.
8.b	.
16cc#Jk	.
=286	=286
!LO:TX:b:i:t=cresc.	!
(4a#X	.
4cc#	.
4ddn	.
4ee#X)	.
=287	=287
!LO:TX:b:i:t=piu cresc.	!
[1ff#	.
=288	=288
8ff#L]	.
(16gg#L	p
16aa#XJJ	.
16bbLL	.
16ccc#	.
16ddd#	.
16eeenJJ	.
[2fff#)	.
=289	=289
!!linebreak:original
8fff#L]	.
(16ggg#L	.
16aaa#XJJ	.
16bbbLL	.
16aaa#	.
16ggg#X	.
16fff#JJ	.
16bbbLL	.
16aaa#	.
16ggg#	.
16fff#JJ	.
16eeeLL	.
16ddd#	.
16ccc#	.
16bbJJ)	.
=290	=290
(16aa#XLL	.
16gg#	.
16ff#	.
16eeJJ	.
16dd#LL	.
16cc#	.
16ee	.
[16gg#JJ	.
16gg#LL]	.
16b	.
16dd#	.
[16ff#JJ	.
16ff#LL])	.
(16cc#	.
16ff#	.
16eeJJ)	.
=291	=291
4..dd#	f
16cc#	.
8..bL	.
32g#kk	.
8..b	.
32cc#Jkk	.
=292	=292
!!linebreak:original
(4..dd#	.
16ee	>
2ff#)	.
=293	=293
(4.gg#	p
8g#)	.
!LO:TX:b:i:t=cresc.	!
(4b	.
4a)	.
=294	=294
(<4a'	.
4r	p
!LO:TX:b:i:t=mancando	!
4g#'	.
4r	.
=295	=295
4gn'	.
4r	.
4f#')	.
4r	.
=296	=296
(2dd#	.
!LO:TX:b:i:t=poco cresc.	!
[4ee	.
12eeL]	.
12ff#	.
12gg#J)	.
=297	=297
(4gg#	.
!LO:TX:b:i:t=piu cresc.	!
4cc#	.
4dd#	.
4ee)	.
=298	=298
!LO:TX:b:i:t=sempre	!
(12dd#L	.
12ee	.
12ff#J	.
12gg#L	.
12aa#X	p
!LO:TX:b:i:t=e dolce	!
12bbJ	.
12aa#L	.
12gg#	.
12ff#J	.
12eeL	.
12dd#	.
12cc#J)	.
=299	=299
!!linebreak:original
(12bL	.
12cc#	.
12dd#J	.
12eeL	.
12ff#	.
12gg#J	.
12ff#L	.
12ee	.
12dd#J	.
12cc#L	.
12b	.
12a#XJ)	.
=300	=300
(>12g#L	.
12a#X	.
12bJ	.
12cc#L	.
12dd#	.
12eeJ	.
12dd#L	.
12cc#	.
12bJ	.
12a#L	.
12g#	.
12f#J)	.
=301	=301
2.e	.
[4ee	.
=302	=302
4ee]	.
[4eee	.
!LO:TX:b:i:t=cresc.	!
4eee]	.
(4eee	.
=303	=303
4ddd#)	.
4ccc#	.
[2bb)	f
=304	=304
!!linebreak:original
(12bbL]	.
12ccc#	.
12ddd#J	.
12eeeL	.
12fff#	.
12ggg#J	.
12fff#L	.
12ggg#	.
12aaa#XJ	.
12bbbL	.
12aaa#	.
12ggg#J	.
=305	=305
12fff#L	.
12eee	p
12ddd#J	.
12ccc#L	.
12bb	.
12aa#XJ	.
12gg#L	.
12ff#	.
12eeJ	.
12dd#L	.
12cc#	.
12bJ)	.
=306	=306
(<12a#XL	.
12g#	.
12f#J	.
12e#XL	.
12f#	.
12gnJ	.
12g#XL	.
12an	.
12a#XJ	.
12bL	.
12b#X	.
12cc#J)	.
=307	=307
!!linebreak:original
(12ddnL	.
12dd#X	.
12eenJ	.
12ee#XL	.
12ff#	.
12ggnJ	.
12gg#XL	.
12ff#	.
12eenJ	.
12dd#L	.
12cc#	.
12eeJ)	.
=308	=308
(>12bnL	.
12a#X	.
12cc#J	.
12gnL	.
12f#	.
12a#J	.
12cc#L	.
12ee	.
12gg#XJ	.
12ee#XL	.
12ff#	.
12a#J)	.
=309	=309
([4b	.
12bL]	.
12ff#	.
12dd#J)	.
([4b	.
12bL]	.
12dd#	.
12bJ)	.
=310	=310
(2.en	.
4a#X)	.
=311	=311
!!linebreak:original
([4b	.
12bL]	.
12bb	.
12ff#J)	.
([4dd#	.
12dd#L]	.
12ff#	.
12bJ)	.
=312	=312
(2a#X	.
4cc#	.
4ff#)	.
=313	=313
[2ff#T	.
4..ff#]	.
16qqee#X/LL	.
16qqff#/JJ	.
16gg#	.
=314	=314
(2aa#X	.
2bb	.
=315	=315
2ccc#	.
4bb	.
8.ddd#L	.
16ccc#Jk)	.
=316	=316
(2bb	.
4aa#X)	.
4r	.
=317	=317
1r	pp
=318	=318
!LO:TX:b:i:t=cresc.	!
8aanL	.
(16bbL	.
16ccc#JJ	.
16dddnLL	.
16eee	.
16fff#	.
16gggnJJ	.
[4aaa)	.
(16aaaLL]	f
16ggg	.
16fff#	.
16eeeJJ)	.
=319	=319
!!linebreak:original
(16dddnLL	ff
16ccc#	.
16bb	.
16aaJJ	.
16ggnLL	.
16ff#	.
16ee	.
16ddnJJ	.
16cc#LL	f
16b	>
16a	.
16gnJJ	.
16f#LL	.
16e	.
16dn	.
16c#JJ)	]
=320	=320
([4dn	p
12dL]	.
12a	.
12f#J)	.
([4d	.
12dL]	.
12f#	.
12dJ)	.
=321	=321
(2B-X	.
4An	.
4c#)	.
=322	=322
2dn	.
2a 2ffn	.
=323	=323
[4a [4ffn	.
(12aL] 12ff]	.
12eee-X	.
12cccnJ)	.
[4aa	.
(12aaL]	.
12ccc	.
12fffnJ)	.
=324	=324
!!linebreak:original
4bb-X	.
12r	.
12ddnL	pp
12ddJ	.
(12ddL	.
12ccn)	.
12cc'J	.
4r	.
=325	=325
4r	.
12r	.
12ee-XL	.
12ee-J	.
(12ee-L	.
12ddn)	.
12dd'J	.
4r	.
=326	=326
4r	.
12r	.
12ffnL	.
12ffJ	.
(12ffL	.
12een)	.
12ee'J	.
4r	.
=327	=327
12r	.
!LO:TX:b:i:t=cresc.	!
12ggnL	.
12ggJ	.
12ggL	.
12gg	.
12ggJ	.
(12ggL	.
12ff#X)	.
12ff#'J	.
(12ff#L	.
12gg#X)	.
12gg#'J	.
=328	=328
!!linebreak:original
(12gg#XL	.
12aa)	.
12aa'J	.
12aaL	.
12aa	.
12aaJ	.
(12aaL	.
12gg#)	.
12gg#'J	.
(12gg#L	.
12bb)	.
12bb'J	.
=329	=329
!LO:TX:b:i:t=piu cresc.	!
(12bbL	.
12dddn)	.
12ddd'J	.
(12dddL	.
12eee#X)	.
12eee#'J	.
(12eee#L	.
12ggg#)	f
12ggg#'J	.
(12ggg#L	.
12bbb)	.
12eee#X'J	.
=330	=330
[4fff#	ff
12fff#L]	.
12ccc#'	.
12aa'J	.
12ff#'L	.
12cc#'	.
12a'J	.
12f#'L	.
12c#'	.
12A'J	.
=331	=331
!!linebreak:original
[4Gn	p
(12GL]	.
12B	.
12dnJ)	.
4r	.
[4ccc#	.
=332	=332
4ccc#]	f
12fff#'L	.
12ccc#'	.
12aa'J	.
12ff#'L	.
12cc#'	.
12a'J	.
12f#'L	.
12c#'	.
12A'J	.
=333	=333
[4Gn	p
12GL]	.
12B	.
12dnJ	.
4r	.
12e#XL	.
12g#X	.
12cc#J	.
=334	=334
[4f#	.
(12f#L]	.
12a	.
12ccnJ)	.
[4d#	.
(12d#L]	.
12f#	.
12bJ)	.
=335	=335
[4ccn	.
12ccL]	.
12qddn/	.
(12cc	.
12bJ)	.
[4cc	.
12ccL]	.
12qdd/	.
(12cc	.
12bJ)	.
=336	=336
!!linebreak:original
4ccn	.
12ccL	.
12qddn/	.
(12cc	.
12bJ)	.
4cc	.
12ccL	.
12qdd/	.
(12cc	.
12bJ)	.
=337	=337
1a 1ee	.
=338	=338
12dd#XL	p
12qqdn/	.
12cn'	.
12B'J	.
[2c	.
(12cL]	.
12B)	.
12BJ	.
=339	=339
1e	f
=340	=340
(<4d#'	.
4r	p
4d#') 4ccn	.
4r	.
=341	=341
(<4e' 4b	.
4r	.
4cn') 4a	.
4r	.
=342	=342
!LO:TX:b:i:t=dim.	!
(<4B' 4gn	.
4r	.
4A') 4f#	.
4r	.
=343	=343
(<4Gn' 4e	.
4r	.
4G') 4e	.
4r	.
=344	=344
4d#X	.
4r	pp
2r	.
=345	=345
!!linebreak:original
!LO:TX:b:i:t=cresc.	!
!LO:TX:b:i:t=cresc.	!
2r	.
2B 2f#	.
=346	=346
(2e	]
2d#	p
=347	=347
2f#	.
2e)	.
=348	=348
(2a	.
4g#	.
8.bL	.
16aJk)	.
=349	=349
(2g#	.
4f#)	.
4r	.
=350	=350
(<2b	.
2a	.
=351	=351
!LO:TX:b:i:t=cresc.	!
2f#	.
2g#)	.
=352	=352
2e	.
4..f#	>
16g#	.
=353	=353
4e	]
4r	p
2r	.
=354	=354
(2b	.
!LO:TX:b:i:t=espress.	!
!LO:TX:a:i:t=sempre staccato	!
2dd#	.
=355	=355
2.ee	.
8.dd#L)	.
16cc#Jk	.
=356	=356
(4b	.
8.ff#L	.
16dd#Jk	.
4b	.
8.cc#L	.
16aJk)	.
=357	=357
!!linebreak:original
(4g#t	.
8.bL	.
16g#Jk	.
4e)	.
4r	.
=358	=358
(2ee	.
4gg#	.
8.bbL	.
16ccc#Jk	.
=359	=359
8.bbL	.
16aak	.
8.gg#	.
16ff#Jk	.
2ee#X)	.
=360	=360
!LO:TX:b:i:t=cresc.	!
1ff#	.
=361	=361
4gg#	.
8.gg#L	f
16ff#Jk	p
8.eenL	.
16dd#k	.
8.cc#	.
16dd#Jk	.
=362	=362
!LO:TX:b:i:t=cresc.	!
8.b#XL	.
16aak	.
8.gg#	.
16ff#Jk	.
8.eeL	.
16dd#k	.
8.cc#	.
16ccnJk	.
=363	=363
4bn	fp
8.bbL	.
16aaJk	.
8.gg#L	.
16ff#k	.
8.ee	.
16ff#Jk	.
=364	=364
!!linebreak:original
(8.dd#L	.
16cccnk)	<
8.bb	>
16aaJk	]
8.ggnL	.
16ff#k	.
8.ee	.
16ff#Jk	.
=365	=365
(4dd#	.
!LO:TX:b:i:t=cresc.	!
4ff#	.
4ggn	.
4aa#X)	.
=366	=366
[1bb	.
=367	=367
8bbL]	.
(16ccc#L	p
16ddd#JJ	.
16eeeLL	.
16fff#	.
16ggg#	.
16aaanJJ)	.
[2bbb	.
=368	=368
16bbbLL]	.
(16aaa	.
16ggg#	.
16fff#JJ	.
16eeeLL	.
16ddd#	.
16ccc#	.
16bbJJ	.
16eeeLL	.
16ddd#	.
16ccc#	.
16bbJJ	.
16aaLL	.
16gg#	.
16ff#	.
16eeJJ)	.
=369	=369
!!linebreak:original
(16dd#LL	.
16cc#	.
16b#X	.
16cc#JJ	.
16ee#XLL	.
16ff#	.
16aa	.
[16ccc#JJ)	.
(16ccc#LL]	.
16een	.
16gg#	.
[16bbJJ)	.
(16bbLL]	.
16ff#	.
16bb	.
16aaJJ)	.
=370	=370
4..gg#	.
16ff#	f
8..eeL	.
32bkk	.
8..ee	.
32ff#Jkk	.
=371	=371
(4..gg#	.
16aa	>
2bb)	.
=372	=372
4.ccc#	]
8cc#	p
(4ee	.
!LO:TX:b:i:t=cresc.	!
4e#X) 4ddn	.
=373	=373
(4e#X' 4ddn	.
4r	p
4cc#'	.
4r	.
=374	=374
!LO:TX:b:i:t=mancando	!
4ccn'	.
4r	.
4b')	.
4r	.
=375	=375
!!linebreak:original
!LO:TX:b:i:t=poco cresc.	!
(2gg#X	.
[4aa	.
12aaL]	.
12bb	.
12ccc#J)	.
=376	=376
!LO:TX:b:i:t=cresc.	!
!LO:TX:b:i:t=piu cresc.	!
(4ccc#	.
4ff#	.
4gg#	.
4aa)	.
=377	=377
(12gg#L	.
12aa	p
12bbJ	.
12ccc#L	.
12ddd#	.
12eeeJ	.
12ddd#L	.
12ccc#	.
12bbJ	.
12aaL	.
12gg#	.
12ff#J)	.
=378	=378
(12eeL	.
12ff#	.
12gg#J	.
12aaL	.
12bb	.
12ccc#J	.
12bbL	.
12aa	.
12gg#J	.
12ff#L	.
12ee	.
12dd#J)	.
=379	=379
!!linebreak:original
(12cc#L	.
12dd#	.
12eeJ	.
12ff#L	.
12gg#	.
12aaJ	.
12gg#L	.
12ff#	.
12eeJ	.
12dd#L	.
12cc#	.
12bJ)	.
=380	=380
2.a	.
[4ff#	.
=381	=381
4ff#]	.
(2aa	.
!LO:TX:b:i:t=cresc.	!
[4fff#)	.
=382	=382
(4fff#]	.
4eee	.
4ccc#	.
4bb)	.
=383	=383
(4gg#	.
4ff#)	.
[2ee	f
=384	=384
12eeL]	.
(12ff#	.
12gg#J	>
12aaL	.
12bb	.
12ccc#J	.
12bbL	.
12ccc#	.
12ddd#J	.
12eeeL	.
12fff#	.
12ggg#J)	]
=385	=385
!!linebreak:original
(12aaaL	.
12bbb	p
12cccc#J	.
12bbbL	.
12aaa	.
12ggg#J	.
12fff#L	.
12eee	.
12ddd#J	.
12ccc#L	.
12bb	.
12aaJ)	.
=386	=386
(12gg#L	.
12ff#	.
12eeJ	.
12dd#L	.
12cc#	.
12bJ	.
12aL	.
12g#	.
12f#J	.
12eL	.
12d#	.
12c#J)	.
=387	=387
(12BL	.
12cn	.
12c#XJ	.
12dnL	.
12d#X	.
12eJ	.
12e#XL	.
12f#	.
12gnJ	.
12g#XL	.
12a	.
12a#XJ)	.
=388	=388
!!linebreak:original
(4b'	.
4b#X'	.
4dd#'	.
4cc#')	.
=389	=389
!LO:TX:b:i:t=cresc.	!
(<4bn'	.
4an'	.
4f#'	.
4d#')	.
=390	=390
!	!LO:DY:a
([4dn	p
12dL]	.
12b	.
12g#J)	.
([4dn	.
12dL]	.
12e	.
12dnJ)	.
=391	=391
([4cn	.
12cL]	.
12e	.
12aJ)	.
([4d#X	.
12d#L]	.
12f#	.
12bJ)	.
=392	=392
(2b	.
[2ee)	.
=393	=393
*^	*
(2ee]	1a	.
2ff#)	.	.
*v	*v	*
=394	=394
(4g# 4ee	.
2gg#	.
4ff#)	.
=395	=395
!!linebreak:original
(4ee	.
2gg#	.
4ff#)	.
=396	=396
!LO:TX:b:i:t=cresc.	!
2ee	.
2gg#	.
=397	=397
[2ccc#	.
8ccc#]	.
8r	p
8bb	.
!LO:TX:b:i:t=cresc.	!
8r	.
=398	=398
8aa	.
8r	.
8gg#	.
8r	.
8ff#	.
8r	.
8ee	.
8r	.
=399	=399
2e 2ee	.
2dd#	ff
=400	=400
2ff#	sf
2e 2ee	sf
=401	=401
2aa	.
4..gg#	.
16aa	sf
=402	=402
(2gg#	.
4ff#)	sf
4r	.
=403	=403
!!linebreak:original
2bb	.
(2a 2aa	sf
=404	=404
2a) 2ff#	.
16qqb/	sf
[2gg#	.
=405	=405
16gg#LL]	p
(>16ff#	.
16ee	.
16dd#JJ	.
16cc#LL	.
16b	.
16a	.
16g#JJ	.
16f#LL	.
16e	.
16d#	.
16c#JJ	.
16BLL	.
16cc#	.
16b	.
16d#JJ)	.
=406	=406
([4e	.
12eL]	.
12b	.
12g#J)	.
([4dn	.
12dL]	.
12e	.
12dnJ)	.
=407	=407
(4cn	.
12c#XL	.
12e	.
12aJ)	.
([4d#	.
12d#L]	.
12f#	.
12bJ)	.
=408	=408
!!linebreak:original
4g#	.
12gg#L	.
12gg#	.
12gg#J	.
4r	.
12gg#L	.
12gg#	.
12gg#J	.
=409	=409
4r	.
12aaL	.
12aa	.
12aaJ	.
4r	.
12bbL	.
12bb	.
[12bbJ	.
=410	=410
12bbL]	.
(12ee	.
12gg#J	.
[4bb)	.
12bbL]	.
(12ff#	.
12aaJ	.
[4bb)	.
=411	=411
!LO:TX:b:i:t=dim.	!
12bbL]	.
(12ee	.
12gg#J	.
[4bb)	.
12bbL]	.
(12ff#	.
12aaJ	.
4bb)	.
=412	=412
!!linebreak:original
(12bbL	.
12aa	.
12gg#J	.
12ff#L	.
12ee	.
12dd#J	.
12eeL	.
12dd#	.
12cc#J	.
12bL	.
12a#X	.
12cc#J)	.
=413	=413
1b	.
=414	=414
[1g#	.
=415	=415
1g#_	.
=416	=416
2g#]	.
8e	.
8r	.
8e	.
8r	.
=417	=417
8e	.
8r	.
4r	.
8B	.
8r	.
4r	.
=418	=418
1B;	<
==419	==419
!!linebreak:original
*k[f#]	*
*G:	*
*M3/4	*
!LO:TX:a:B:t=Allegretto	!
8e'L	[
8b'J	pp
(4.ee	.
8gg)	.
=420!|:	=420!|:
8r	.
8ff#'	.
(4.dd#X	.
8b)	.
=421	=421
8r	.
8b'	.
(4.cc	.
8a)	.
=422	=422
8r	.
8a	.
4.f#	.
[8g	.
=423	=423
8gL]	.
8b'J	.
4.ee	.
[8gg	.
=424	=424
!LO:TX:b:i:t=cresc.	!
8ggL]	.
8ggJ	.
4.ccc#X	.
[8eee	.
=425	=425
8eeeL]	.
8eee'J	.
4.ggg	f
[8cc#X	>
=426	=426
!!linebreak:original
(4cc#]	]
4dd)	p
4dd#X'	.
=427	=427
8ee'L	pp
8b'J	.
(4.ee	.
8gg)	.
=428:|!	=428:|!
(4cc#X	.
4ddn	p
[4dd)	.
=429	=429
8ddL]	.
8dd'J	pp
(4.ee-X	.
8ccn)	.
=430!|:	=430!|:
8r	.
8cc'	.
(4.a#X	.
8b)	.
=431	=431
8r	.
8een'	.
(4.ffn	.
8dd)	.
=432	=432
8r	.
8dd'	.
(4.b	.
8cc)	.
=433	=433
[2.ee	p
=434	=434
!LO:TX:b:i:t=cresc.	!
2.ee_	.
=435	=435
2.ee_	.
=436	=436
!!linebreak:original
2ee]	.
4ee	.
=437	=437
8ffn'L	sf
8cc'J	f
(4.ff	.
8aa)	.
=438	=438
8r	.
8aa'	.
(4.bb-X	.
8gg)	.
=439	=439
8r	.
8ee	.
(4.cc	.
8b-X)	.
=440	=440
8r	.
8b-X	.
(4.g#X	.
8g#)	.
=441	=441
4.c 4.a	ff
8c' 8a	.
4c' 4a	.
=442	=442
4.c 4.a	.
8c' 8a	.
4c' 4a	.
=443	=443
4.c 4.a	.
8c' 8a	.
4c' 4a	.
=444	=444
[2.c [2.a	ff
=445	=445
8cL] 8a]	.
8cccJ	p
(4.bb	.
[8aa)	.
=446	=446
!!linebreak:original
8aaL]	.
8aa'J	.
(4.aa	.
[8ee)	.
=447	=447
8eeL]	.
8ee'J	.
(4.dd#X	.
[8ff#)	.
=448	=448
(8ff#L]	.
!LO:TX:b:i:t=cresc.	!
8dd#XJ	.
4ee)	.
(4eee	.
=449	=449
4.fffn)	ff
8cc' 8aa	.
4cc' 4aa	.
=450	=450
4.cc 4.aa	.
8cc' 8aa	.
4cc' 4aa	.
=451	=451
4.cc 4.aa	.
8cc' 8aa	.
4cc' 4aa	.
=452	=452
[2.cc [2.aa	ff
=453	=453
8ccL] 8aa]	]
8cccJ	p
(4.bb	.
[8aa)	.
=454	=454
8aaL]	.
8aaJ	.
(4.gg	.
[8ee)	.
=455	=455
8eeL]	.
8eeJ	.
(4.dd#X	.
8ff#)	.
=456	=456
!!linebreak:original
8ee'L	.
8bb'J	pp
(4.eee	.
[8ggg)	.
=457	=457
8gggL]	.
8fff#J	.
(4.ddd#X	.
[8bb)	.
=458	=458
8bbL]	.
8bbJ	.
(4.ccc	.
[8aa)	.
=459	=459
8aaL]	.
(8aaJ	.
4.ff#	.
[8gg)	.
=460	=460
8ggL]	.
(8ggJ	.
4.ee	.
[8ffn)	.
=461	=461
8ffL]	.
(8ffnJ	.
4.dd#X	.
[8ee)	.
=462	=462
8eeL]	.
(8eeJ	.
4.cc#X	.
8dd#X)	.
=463	=463
4ee	.
4r	.
4r	.
=464	=464
!!linebreak:original
8r	.
8cccn'	.
(4.dd#X	.
8ee)	.
=465	=465
2.r	.
=466	=466
8r	.
!LO:TX:b:i:t=cresc.	!
8ccc'	.
(4.dd#X	.
8ee)	.
=467	=467
8r	.
8ccc'	.
(4.dd#X	.
[8ee)	.
=468	=468
8eeL]	.
8cccJ	.
[2dd#X	f
=469	=469
(2dd#]	>
4ee)	.
=470	=470
4ee	]
4r	p
4r	.
=471	=471
4f#	.
4r	.
4r	.
=472	=472
4e	.
4r	.
[4ee	.
=473	=473
8eeL]	pp
8dd'J	.
(4.ee-X	.
8cc)	.
=474:|!	=474:|!
!!linebreak:original
4een	.
4r	p
4r	.
=475	=475
4f#	.
4r	.
4r	.
=476	=476
4e	.
=||	=||
*k[f#c#g#d#]	*
*E:	*
4r	.
!LO:TX:a:B:t=Maggiore	!
4r	.
=477	=477
2.r	.
=478	=478
2.r	.
=479	=479
!LO:TX:b:i:t=cresc.	!
2.r	.
=480	=480
!LO:TX:b:i:t=cresc.	!
2.r	.
=481	=481
2.r	.
=482	=482
2.r	sf
=483	=483
!LO:TX:a:t=Theme russe.	!
2.r	p
=484	=484
2.r	.
=485	=485
!LO:TX:b:i:t=cresc.	!
!LO:TX:b:i:t=cresc.	!
2.r	.
=486	=486
!LO:TX:b:i:t=cresc.	!
2.r	.
=487	=487
2.r	.
=488	=488
4r	.
!LO:TX:a:t=Theme russe.	!
(12gg#L	p
12ff#	.
12eeJ	.
12dd#L	.
12cc#	.
12dd#J)	.
=489	=489
(12eeL	.
12dd#	.
12cc#J)	.
12bL	.
12b	.
12bJ	.
(12bL	.
12cc#	.
12dd#J)	.
=490	=490
!!linebreak:original
(12eeL	.
12dd#	.
12eeJ	.
12ff#L	.
12ee	.
12ff#J	.
12gg#L	.
12ff#	.
12gg#J)	.
=491	=491
!LO:TX:b:i:t=cresc.	!
(12aaL	.
12bb	.
12aaJ	.
12gg#L	.
12ff#	.
12eeJ	.
12dd#L	.
12cc#	.
12bJ)	.
=492	=492
(12eeL	.
12ff#	.
12gg#J	.
12aaL	.
12bb	.
12ccc#J	.
12bbL	.
12ccc#	p
12bbJ)	.
=493	=493
(12aaL	sf
12bb	.
12aaJ	>
12gg#L	.
12ff#	.
12eeJ	.
12dd#L	.
12cc#	]
12bJ)	.
=494	=494
!!linebreak:original
4ee	p
!LO:TX:a:t=Theme russe.	!
8bb	.
8r	.
8ff#	.
8r	.
=495	=495
(8bbL	.
8ccc#J)	.
8ddd#	.
8r	.
8ddd#	.
8r	.
=496	=496
(8ddd#L	.
8fff#J)	.
8eee	.
8r	.
8ddd#	.
8r	.
=497	=497
!LO:TX:b:i:t=cresc.	!
!LO:TX:b:i:t=cresc.	!
8ccc#	.
8r	.
8bb	.
8r	.
8ccc#	.
8r	.
=498	=498
(2ddd#	.
4bb)	.
=499	=499
(2ccc#	p
8ddd#L	.
8ccc#J)	.
=500	=500
(2bb	.
!LO:TX:b:i:t=cresc.	!
8ccc#L	.
8bbJ)	.
=501	=501
(2aa	.
8bbL	mp
!LO:TX:b:i:t=cresc.	!
8aaJ)	.
=502	=502
!!linebreak:original
(2gg#	.
8aaL	.
8gg#J)	.
=503	=503
2.ff#T	f
16qqee/LL	.
16qqff#X/JJ	.
=504	=504
4ee	.
!LO:TX:b:i:t=sempre.	!
!LO:TX:b:i:t=sempre.	!
4r	.
!	!LO:DY:a
4r	p
=505	=505
2.r	.
=506	=506
!LO:TX:b:i:t=sempre staccato	!
2.r	.
=507	=507
2.r	.
=508	=508
2.r	.
=509	=509
2.r	.
=510	=510
2.r	.
=511	=511
2.r	.
=512	=512
!LO:TX:b:i:t=sempre staccato	!
2.r	.
=513	=513
2.r	.
=514	=514
2.r	.
=515	=515
2.r	.
=516	=516
8r	.
8bb'	p
8ggg#'L	p
!LO:TX:b:i:t=cresc.	!
8fff#'	.
8eee'	.
8ddd#'J	.
=517	=517
8eee'L	.
!LO:TX:b:i:t=sempre staccato	!
8ddd#'	.
8ccc#'	.
8bb'	.
8aa'	.
8gg#'J	.
=518	=518
8gg#'L	.
8gg#'	.
8aa'	.
8gg#'	.
8aa'	.
8bb'J	.
=519	=519
!!linebreak:original
8ccc#'L	.
8ff#'	.
8bb'	.
8ccc#'	.
8bb'	.
8aa'J	.
=520	=520
8gg#'L	.
8ff#'	.
8gg#'	.
8aa'	.
8bb'	.
8ccc#'J	.
=521	=521
8aa'L	.
8gg#'	.
8aa'	.
8bb'	.
8ccc#'	.
8ddd#'J	.
=522	=522
8eee	.
8r	.
4bb'	.
4aa#X'	f
=523	=523
(8bbL	.
!LO:TX:b:i:t=sempre staccato	!
8ccc#J)	.
4ddd#'	.
4ddd#'	.
=524	=524
(8ddd#L	.
8fff#J)	.
4eee'	.
4ddd#'	.
=525	=525
4ccc#'	.
4bb'	.
4ccc#'	.
=526	=526
!!linebreak:original
(2ddd#	.
4bb)	.
=527	=527
(2ccc#	.
8ddd#L	.
8ccc#J)	.
=528	=528
4.bb	.
8ccc#'L	.
8bb'	ff
8aa'J	.
=529	=529
8gg#'L	.
8ff#'	.
8ee'	.
8cc#'	.
8b'	.
8a'J	.
=530	=530
4g#	.
4r	.
4r	ff
=531	=531
2.r	.
=532	=532
2.r	.
=533	=533
2.r	.
=534	=534
2.r	sf
=535	=535
2.r	sf
=536	=536
4r	sf
8eee	ff
8r	.
8bb	.
8r	sf
=537	=537
(8eeeL	.
8fff#J)	.
8ggg#	.
8r	.
8ggg#	sf
8r	.
=538	=538
(8ggg#L	.
8bbbJ)	.
4aaa'	.
4ggg#'	.
=539	=539
!!linebreak:original
4fff#'	sf
4eee'	.
4fff#'	sf
=540	=540
([4ggg#	>
!LO:TX:a:i:t=legato	!
4ggg#]	.
4eee)	p
=541	=541
!LO:TX:b:i:t=legato e sempre	!
(2fff#	]
8ggg#L	p
8fff#J)	.
=542	=542
4eee	p
(4ee	.
!LO:TX:a:i:t=legato	!
4b)	p
=543	=543
(8eeL	.
8ff#J)	.
[4gg#'	.
!LO:TX:a:i:t=legato	!
4gg#']	p
=544	=544
(8gg#L	.
8bbJ	.
4aa	.
4gg#)	.
=545	=545
(4ff#	.
4ee	.
4ff#)	.
=546	=546
(2gg#	.
4ee)	.
=547	=547
(2ff#	.
8gg#L	.
8ff#J)	.
=548	=548
4ee	.
4r	.
4ee	.
=549	=549
(2ff#	.
8gg#L	.
8ff#J)	.
=550	=550
!!linebreak:original
4ee	.
4r	.
4e	.
=551	=551
(2f#	.
8g#L	.
8f#J)	.
=552	=552
[4e	.
4e]	.
4r	.
=553	=553
4r	.
4d#	.
4r	.
=554	=554
4r	.
4e	.
4r	.
=555	=555
4r	.
4d#	.
4r	.
=556	=556
4r	.
4e	.
!LO:TX:b:i:t=dim.	!
4r	.
=557	=557
4e	.
4r	.
4e	.
=558	=558
4r	.
(8gnL	pp
8f#J	.
4e')	.
=559	=559
(8gnL	.
8f#J	.
4e')	.
(8gnL	.
8f#J)	.
==560	==560
!!linebreak:original
*k[f#]	*
*e:	*
*M2/2	*
*met(c|)	*
!LO:TX:a:B:t=Finale. Presto	!
!LO:TX:a:t=Da Capo	!
2.c	.
8cccL	fp
8dddJ	.
=561	=561
4eee'	.
8r	.
8ddd'	.
4ccc'	.
8r	.
8aa'	.
=562	=562
2.gg	.
(8cccL	.
8dddJ	.
=563	=563
8eeeL	.
8ddd)	.
8ccc'	.
8bb'J	.
(8dddL	.
8ccc)	.
8bb'	.
8aa'J	.
=564	=564
[2gg	.
4.gg]	.
8ffn'	.
=565	=565
4ee'	.
8r	.
8dd'	.
4cc'	.
8r	.
8b'	.
=566	=566
(<8qqb/	.
4a	.
8gL	.
8aJ	.
[2b)	.
=567	=567
!!linebreak:original
(4b]	.
!LO:TX:b:i:t=cresc.	!
8cc#XL	.
8dd#XJ	.
4ee	.
8ff#XL	.
8dd#J)	.
=568	=568
8ee	.
8r	.
(8eeL	.
8ffnJ	.
8gg)	.
8r	.
(8aaL	.
8bbJ	.
=569	=569
2.cccn)	.
(8cccL	fp
8dddnJ	.
=570	=570
4eee')	.
8r	.
8ddd'	.
4ccc'	.
8r	.
8aa'	.
=571	=571
2.gg	.
(8cccL	.
8dddJ	.
=572	=572
8eeeL)	.
8ddd)	.
8ccc'	.
8bb'J	.
(8dddL	.
8ccc)	.
8bb'	.
8aa'J	.
=573	=573
[2gg	.
4.gg]	.
8ffn'	.
=574	=574
!!linebreak:original
4ee'	.
8r	.
8dd'	.
4cc'	.
8r	.
8b'	.
=575	=575
(<8qqb/	.
4a	.
8gL	.
8aJ	.
[2b)	.
=576	=576
(4b]	.
8cc#XL	.
!LO:TX:b:i:t=cresc.	!
8dd#XJ	.
4ee	.
8ff#XL	.
8dd#J)	.
=577	=577
2ee'	.
2gg'	.
=578	=578
2.ff#	fp
4ccc#X	.
=579	=579
(8ccc#XL	.
8aa#XJ)	.
4ff#'	.
4ff#'	.
4ff#'	.
=580	=580
2ff#'	.
!LO:TX:b:i:t=cresc.	!
2cccn'	.
=581	=581
2bb'	.
2bb'	.
=582	=582
2.ccc	fp
(8cccL	.
8dddJ	.
=583	=583
!!linebreak:original
4eee')	.
8r	.
8ddd'	.
4ccc'	.
8r	.
8aa'	.
=584	=584
2.gg	.
(8cccL	.
8dddJ	.
=585	=585
8eeeL	.
8ddd)	.
8ccc'	.
8bb'J	.
(8dddL	.
8ccc)	.
8bb'	.
8aa'J	.
=586	=586
[2gg	.
4.gg]	.
8ffn	.
=587	=587
4ee'	.
8r	.
8dd'	.
4cc'	.
8r	.
8b'	.
=588	=588
(<8qqb/	.
4a	.
8gL	.
8aJ	.
[2b)	.
=589	=589
(4b]	.
8cc#XL	.
!LO:TX:b:i:t=cresc.	!
8dd#XJ	.
4ee	.
8ff#XL	.
8dd#J)	.
=590	=590
2ee'	.
2gg'	.
=591	=591
!!linebreak:original
2.ff#	fp
4ccc#X'	.
=592	=592
(8ccc#XL	.
8aa#XJ)	.
4ff#'	.
4ff#'	.
4ff#'	.
=593	=593
!LO:TX:b:i:t=cresc.	!
2ff#'	.
2cccn'	.
=594	=594
2bb'	.
2bb'	.
=595	=595
2.ccc	.
(8cccL	fp
8dddJ	.
=596	=596
4eee')	.
8r	.
8ddd'	.
4ccc'	.
8r	.
8aa'	.
=597	=597
2.gg	.
(8cccL	.
8dddJ	.
=598	=598
8eeeL	.
8ddd)	.
8ccc'	.
8bb'J	.
(8dddL	.
8ccc)	.
8bb'	.
8aa'J	.
=599	=599
[2gg	.
4.gg]	.
8ffn'	.
=600	=600
!!linebreak:original
4ee'	.
8r	.
8dd'	.
4cc'	.
8r	.
8b'	.
=601	=601
(<8qqb/	.
4a	.
!LO:TX:b:i:t=cresc.	!
8gL	.
8aJ	.
[2b)	.
=602	=602
4b]	.
(>8aL	.
8bJ	.
[2cc)	.
=603	=603
4cc]	.
(8bL	.
8dd#XJ	.
8ee')	.
8r	.
(8bL	.
8eeJ	.
=604	=604
8ff#')	.
8r	.
(8bL	.
8ff#J	.
8gg')	.
8r	.
(8eeL	.
8ggJ	.
=605	=605
8aa')	.
8r	.
(8eeL	.
8aaJ	.
8bb')	.
8r	.
(8eeL	.
8bbJ	.
=606	=606
!!linebreak:original
8ccc')	.
8r	.
(8aaL	.
8ff#J	.
8dd#X')	.
8r	.
(8bL	.
8dd#J	.
=607	=607
8ee')	f
8r	.
(8bL	.
8dd#XJ	.
8ee')	.
8r	.
(8bL	.
8eeJ	.
=608	=608
8ff#')	.
8r	.
(8bL	.
8ff#J	.
8gg')	.
8r	.
(8eeL	.
8ggJ	.
=609	=609
8aa')	.
8r	.
(8eeL	.
8aaJ	.
8bb')	.
8r	.
(8eeL	.
8bbJ	.
=610	=610
8ccc')	.
8r	.
(8aaL	.
8ff#J	.
8dd#X')	.
8r	.
(8bL	.
8dd#J)	.
=611	=611
!!linebreak:original
8eeL	.
!LO:TX:b:i:t=sempre.	!
8ff#	.
8ee	.
8dd#XJ	f
8eeL	.
8gg	.
8ff#	.
8eeJ	.
=612	=612
8dd#XL	.
8ee	.
8dd#	.
8cc#XJ	.
8dd#L	.
8ff#	.
8ee	.
8dd#J	.
=613	=613
8eeL	.
8ff#	.
8ee	.
8dd#XJ	.
8eeL	.
8gg	.
8ff#	.
8eeJ	.
=614	=614
8dd#XL	.
8ee	.
8ff#	.
8ggJ	.
8aaL	.
8bb	.
8ccc#X	.
8ddd#XJ	.
=615	=615
4eee	.
4r	.
2r	.
=616	=616
2r	.
(2ccnT	.
=617	=617
!!linebreak:original
8b')	.
8r	.
(8bL	.
8ccJ	.
8dd')	.
8r	.
(8ddL	.
8eeJ	.
=618	=618
8ff#)	.
8r	.
(8ggL	.
8aaJ	.
2bbt)	.
=619	=619
4aa	.
4r	.
2r	.
=620	=620
2r	.
(2aT	.
=621	=621
8g')	.
8r	.
(<8gL	.
8aJ	.
8b')	.
8r	.
(8bL	.
8ccJ	.
=622	=622
8dd')	.
8r	.
(8eeL	.
8ff#J	.
2ggT)	.
=623	=623
(2.ff#	.
4gg	sf
=624	=624
2.ff#	.
4ee#X)	sf
=625	=625
4ff#	.
(2fff#	.
4ggg	sf
=626	=626
2.fff#	.
4eee#X)	.
=627	=627
!!linebreak:original
4fff#	.
(2ff#	.
4gg	>
=628	=628
4een	.
4dd	.
4cc#X	.
4ff#)	.
=629	=629
(4b	p
4dd	.
4ff#	.
4bb	.
=630	=630
4aa#X	.
4ccc#X)	.
4r	.
(4ccc#	.
=631	=631
4bb	.
4ddd)	.
4r	.
(4ddd	.
=632	=632
4cccn	.
4eee)	.
4r	.
(4eee	.
=633	=633
4gg	.
4ccc	.
4eee	.
4ggg)	.
=634	=634
(4fff#	.
4ddd)	.
4r	.
(4ddd	.
=635	=635
4ccc#X	.
4fff#)	.
4r	.
(4fff#	.
=636	=636
4ddd	.
4bb)	.
2r	.
=637	=637
!!linebreak:original
2r	.
!LO:TX:b:i:t=cresc.	!
(4ff#	.
!LO:TX:b:i:t=cresc.	!
4dd)	.
=638	=638
2r	.
(4ff#	p
4cc#X)	.
=639	=639
2r	.
(4ff#	.
4dd)	.
=640	=640
2r	.
(4ee	.
4ccn)	.
=641	=641
2r	.
(4gg	.
4ee)	.
=642	=642
2r	.
(4dd	.
4ff#)	.
=643	=643
2r	.
(4cc#X	.
4aa#X)	.
=644	=644
(2.bb	pp
8ccc#XL	.
8bbJ	.
=645	=645
2.aa#X	.
8bbL	.
8aa#J)	.
=646	=646
(2.bb	.
8ccc#XL	.
8bbJ	.
=647	=647
8aa#XL	.
8bb	.
8ccc#X	.
8bbJ	.
8aa#L	.
8ccc#	.
8bb	.
8aa#J)	.
=648	=648
!!linebreak:original
4bb	pp
(8bL	.
8cc#XJ	.
8dd')	.
8r	.
4r	.
=649	=649
4r	pp
(8bL	.
8cc#XJ	.
8dd')	.
8r	.
4r	pp
=650	=650
1r	.
=651	=651
1r	pp
=652	=652
4r	.
(8bL	.
8cc#XJ	.
8dd')	.
8r	.
(8bL	.
8ccnJ	.
=653	=653
8dd')	.
8r	.
4r	.
2r	.
=654	=654
1r	.
=655	=655
2r	.
4r	.
(8bL	.
8ccJ	.
=656	=656
8dd')	.
8r	.
(8ddL	.
8eeJ	.
8ffn')	.
8r	.
4r	.
=657	=657
!!linebreak:original
4r	.
(8dL	.
8eJ	.
8fn')	.
8r	.
4r	.
=658	=658
1r	.
=659	=659
1r	.
=660	=660
1r	.
=661	=661
4r	.
(8ddL	.
8eeJ	.
8ffn')	.
8r	.
4r	.
=662	=662
2r	.
4r	.
!LO:TX:b:i:t=cresc.	!
(8ddL	.
8eeJ	.
=663	=663
4ffn')	.
(8dddL	.
8eeeJ	.
4fffn')	.
(8dddL	.
!LO:TX:b:i:t=piu cresc.	!
8eeeJ	.
=664	=664
4fffn')	.
!LO:TX:b:i:t=piu cresc.	!
4r	.
2r	.
=665	=665
2r	.
8r	.
(8GL	.
8A	.
8BJ	.
=666	=666
2.c)	.
(8cccL	fp
8dddJ	.
=667	=667
4eee')	.
8r	.
8ddd'	.
4ccc'	.
8r	.
8aa'	.
=668	=668
!!linebreak:original
2.gg	.
(8cccL	.
8dddJ	.
=669	=669
8eeeL	.
8ddd)	.
8ccc'	.
8bb'J	.
(8dddL	.
8ccc)	.
8bb'	.
8aa'J	.
=670	=670
[2gg	.
4.gg]	.
8ffn'	.
=671	=671
4ee'	.
8r	.
8dd'	.
4cc'	.
8r	.
8b'	.
=672	=672
(8qqb/	.
4a	.
8gL	.
8aJ)	.
[2b	.
=673	=673
(4b]	.
!LO:TX:b:i:t=cresc.	!
8cc#XL	.
8dd#XJ	.
4ee	.
8ff#XL	.
8dd#J)	.
=674	=674
8ee	.
8r	.
(8eeL	.
8ffnJ	.
8gg)	.
8r	.
(8aaL	.
8bbJ	.
=675	=675
!!linebreak:original
2.cccn)	fp
(8cccL	.
8dddnJ	.
=676	=676
4eee')	.
8r	.
8ddd'	.
4ccc'	.
8r	.
8aa'	.
=677	=677
2.gg	.
(8cccL	.
8dddJ	.
=678	=678
8eeeL	.
8ddd)	.
8ccc'	.
8bb'J	.
(8dddL	.
8ccc)	.
8bb'	.
8aa'J	.
=679	=679
[2gg	.
4.gg]	.
8ffn'	.
=680	=680
4ee'	.
8r	.
8dd'	.
4cc'	.
8r	.
8b'	.
=681	=681
(8qqb/	.
4a	.
8gL	.
8aJ)	.
[2b	.
=682	=682
(4b]	.
!LO:TX:b:i:t=cresc.	!
8cc#XL	.
8dd#XJ	.
4ee	.
8ff#XL	.
8dd#J)	.
=683	=683
!!linebreak:original
2ee'	.
2gg'	.
=684	=684
2.ff#X	.
4ccc#X	fp
=685	=685
(8ccc#XL	.
8aa#XJ)	.
4ff#'	.
4ff#'	.
4ff#'	.
=686	=686
!LO:TX:b:i:t=cresc.	!
2ff#'	.
2cccn'	.
=687	=687
2bb'	.
2bb'	.
=688	=688
2.ccc	.
(8cccL	fp
8dddJ	.
=689	=689
4eee')	.
8r	.
8ddd'	.
4ccc'	.
8r	.
8aa'	.
=690	=690
2.gg	.
(8cccL	.
8dddJ	.
=691	=691
8eeeL	.
8ddd)	.
8ccc'	.
8bb'J	.
(8dddL	.
8ccc)	.
8bb'	.
8aa'J	.
=692	=692
!!linebreak:original
[2gg	.
4.gg]	.
8ffn	.
=693	=693
4ee'	.
8r	.
8dd'	.
4cc'	.
8r	.
8b'	.
=694	=694
(8qqb/	.
4a	.
8gL	.
8aJ)	.
[2b	.
=695	=695
(4b]	.
!LO:TX:b:i:t=cresc.	!
8cc#XL	.
8dd#XJ	.
4ee	.
8ff#XL	.
8dd#J)	.
=696	=696
2ee'	.
2gg'	.
=697	=697
(8ccc#XL	fp
8aa#XJ)	.
4ff#'	.
4ff#'	.
4ff#'	.
=698	=698
2.ff#X	.
4ccc#X	.
=699	=699
!LO:TX:b:i:t=cresc.	!
(8ccc#XL	.
8aa#XJ)	.
4ff#'	.
(8cccnL	.
8aanJ)	.
4ff#'	.
=700	=700
!!linebreak:original
(8dddL	.
8bbJ)	.
4ffn'	.
(8dddL	.
8bbJ)	.
4gg'	.
=701	=701
4eee'	fp
8r	.
8ddd'	.
4ccc'	.
8r	.
8aa'	.
=702	=702
4gg	.
4r	.
4r	.
(8cccL	.
8dddJ	.
=703	=703
8eeeL	.
8ddd)	.
8ccc'	.
8bb'J	.
(8dddL	.
8ccc)	.
8bb'	.
8aa'J	.
=704	=704
4gg	.
4r	.
4r	.
(8cccL	.
8dddJ)	.
=705	=705
8eee'L	ff
8ddd'	.
8ccc'	.
8bb'J	.
8ccc'L	.
8bb'	.
8aa'	.
8gg'J	.
=706	=706
!!linebreak:original
8aa'L	sf
8gg'	.
8ffn'	.
8ee'J	.
8ff'L	.
8ee'	.
8dd'	.
8cc'J	.
=707	=707
8b'L	.
8cc'	.
8dd'	.
8ee'J	.
8ffn'L	sf
8ee'	.
8dd'	.
8cc'J	.
=708	=708
8b'L	.
8cc'	.
8dd'	.
8cc'J	.
8b'L	sf
8g'	.
8a'	.
8b'J	.
=709	=709
1cc 1ee	ff
=710	=710
!LO:TX:b:i:t=sempre.	!
1aa	sf
=711	=711
2ffn	.
2ddd	sf
=712	=712
2bb	.
2eee	sf
=713	=713
8ccc'L	.
8bb'	.
8aa'	.
8gg#X'J	.
8aa'L	.
8ggn'	.
8ffn'	.
8ee'J	.
=714	=714
!!linebreak:original
8ffn'L	.
8ee'	sf
8dd'	.
8cc'J	.
8dd'L	.
8cc'	.
8b'	.
8a'J	.
=715	=715
8g#X'L	.
8a'	.
8b'	.
8cc'J	.
8dd'L	.
8cc'	sf
8b'	.
8a'J	.
=716	=716
8g#X'L	.
8a'	.
8b'	.
8a'J	.
8g#'L	sf
8e'	.
8f#'	.
8g#'J	.
=717	=717
1a 1cc	.
=718	=718
1ffn	sf
=719	=719
2dd	.
2bb-X	.
=720	=720
2gg	sf
[2ccc	sf
=721	=721
2ccc]	.
2aa	.
=722	=722
!!linebreak:original
2ffn	.
[2bb-X	.
=723	=723
2bb-]	.
2gg	.
=724	=724
2ee	.
(2aa	.
=725	=725
4dd)	.
4r	.
2r	.
=726	=726
4r	.
(8bbL	.
8cccJ	.
8dddL	sf
8bb	.
8ccc	.
8dddJ	.
=727	=727
4ccc)	.
4r	.
2r	.
=728	=728
4r	.
(8aaL	.
8bb-XJ	.
8cccL	.
8aa	.
8bb-	.
8cccJ)	.
=729	=729
2.bb-X	fp
(8bb-L	.
8cccJ	.
=730	=730
4ddd)	pp
8r	.
8ccc'	.
4bb-X'	.
8r	.
8gg'	.
=731	=731
!!linebreak:original
4ffn'	.
8r	.
8ee-X'	.
4dd'	.
8r	.
8cc'	.
=732	=732
4b-X'	.
8r	.
8a'	.
4b-'	.
8r	.
8g'	.
=733	=733
2.fn	.
(8b-XL	.
8ccJ	.
=734	=734
4dd')	.
8r	.
8cc'	.
4b-X'	.
8r	.
8g'	.
=735	=735
!LO:TX:b:i:t=cresc.	!
4fn'	.
8r	.
8e-X'	.
4d'	.
8r	.
8c'	.
=736	=736
4B-X'	.
4a'	.
(4g	.
8fnL	.
8gJ)	.
=737	=737
2.a	ff
4A	.
=738	=738
2.a	.
4A	.
=739	=739
2.a	.
4A	.
=740	=740
!!linebreak:original
4a	.
4A	.
4a	.
4A	.
=741	=741
4ffn'	.
4ee'	.
(4dd	.
8cc#XL	.
8ddJ)	.
=742	=742
4ee-X'	.
4dd'	.
(4ccn	.
8bL	.
8ccJ)	.
=743	=743
4dd'	.
4cc'	.
(<4b-X	.
8aL	.
8b-J)	.
=744	=744
4cc'	.
4b-X'	.
(4a	.
8gL	.
8aJ)	.
=745	=745
4bn	.
4r	.
2r	.
=746	=746
4aa-X'	.
4gg'	.
(4ffn	.
8ee-XL	.
8ffJ)	.
=747	=747
4gg'	.
4ffn'	.
(4ee-X	.
8ddL	.
8ee-J)	.
=748	=748
!!linebreak:original
4ffn'	.
4ee-X'	.
(4dd	.
8ccL	.
8ddJ)	.
=749	=749
4een	.
(8eeL	.
8ffnJ	.
4gg	.
8aaL	.
8bb-XJ)	.
=750	=750
[1aa	.
=751	=751
4aa]	.
(8ffnL	.
8ggJ	.
4aa	.
8bbnL	.
8cccJ)	.
=752	=752
[1bb	.
=753	=753
1bb_	.
=754	=754
1bb_	.
=755	=755
4bb]	.
(8bL	.
8ccJ	.
8dd)	.
8r	.
(8ddL	.
8eeJ	.
=756	=756
8ffn)	.
8r	.
(8ggL	.
8aaJ	.
2bbt)	.
=757	=757
4ccc	.
4r	.
2r	.
=758	=758
!!linebreak:original
2r	.
4r	.
4g	.
=759	=759
8g#X	.
8r	.
(<8g#L	.
8aJ	.
8b')	.
8r	.
(8bL	.
8ccJ	.
=760	=760
8dd')	.
8r	.
(8eeL	.
8ff#XJ	.
2gg#Xt)	.
=761	=761
4aa	.
(>8aL	.
8bJ	.
8cc')	.
8r	.
(8ccL	.
8ddJ	.
=762	=762
8ee')	.
8r	.
(8ff#XL	.
8gg#XJ	.
2aaT)	.
=763	=763
8bb	.
8r	.
(8eeL	.
8ff#J	.
8ggn')	.
8r	.
(8ggL	.
8aaJ	.
=764	=764
!!linebreak:original
8bb')	.
8r	.
(8ccc#XL	.
8ddd#XJ	.
2eeeT)	.
=765	=765
4r	.
4ddd#X	.
2ddd#t	.
=766	=766
4r	sf
4eee	.
2eeeT	sf
=767	=767
4r	.
4fff#	.
2fff#t	sf
=768	=768
2gggT	.
2aaaT	.
=769	=769
(2.bbb	sf
4cccc	.
=770	=770
2.bbb	sf
4aaa#X)	.
=771	=771
4bbb	.
(2bb	sf
4ccc)	.
=772	=772
(2.bb	.
4aa#X	.
=773	=773
4bb)	.
(2bb	sf
4ccc	>
=774	=774
4aan	.
4gg	.
4ff#	.
4bb)	.
=775	=775
!!linebreak:original
(4ee	]
4gg	p
4bb	.
4eee	.
=776	=776
4ddd#X	.
4fff#)	.
4r	.
(4fff#	.
=777	=777
4eee	.
4ggg)	.
4r	.
(4ggg	.
=778	=778
4fffn	.
4aaa)	.
4r	.
(4aaa	.
=779	=779
4ccc	.
4fffn	.
4aaa	.
4cccc	.
=780	=780
4bbb	.
4ggg)	.
4r	.
(4ggg	.
=781	=781
4aaa	.
4fff#X)	.
4r	.
(4fff#	.
=782	=782
!LO:TX:b:i:t=cresc.	!
4ggg	.
4eee)	.
4r	.
4eee	.
=783	=783
2r	.
(4bb	.
!LO:TX:b:i:t=cresc.	!
4gg)	.
=784	=784
!!linebreak:original
2r	.
(4bb	p
4ff#)	.
=785	=785
2r	.
(4bb	.
4gg)	.
=786	=786
2r	.
(4aa	.
4ffn)	.
=787	=787
2r	.
(4ccc	.
4aa)	.
=788	=788
2r	.
(4gg	.
4bb)	.
=789	=789
2r	.
(4ff#X	.
4bb)	.
=790	=790
(4ee	.
!LO:TX:b:i:t=cresc.	!
4gg	.
4bb-X	.
4eee)	.
=791	=791
1fffn	f
=792	=792
1eee	.
=793	=793
1fffn	f
=794	=794
1eee	f
=795	=795
2r	.
(4cc	.
4a)	p
=796	=796
!!linebreak:original
2rb	.
(<4g	.
4b)	.
=797	=797
2r	.
(<4f#	.
4b)	.
=798	=798
1r	.
=799	=799
(4cc	f
4ffn	.
4aa	.
4ccc	.
=800	=800
4bb-X	f
4gg)	.
4r	.
(4gg	.
=801	=801
4aa	f
4ffn)	.
4r	.
(4ffn	.
=802	=802
4gg	.
4cc)	f
4r	.
4cc	.
=803	=803
2r	.
(4ccc	p
4aa)	.
=804	=804
2r	.
(4gg	.
4bb)	.
=805	=805
2r	.
(4ff#X	.
4ddd#X)	.
=806	=806
(2.eee	pp
8fff#L	.
8eeeJ	.
=807	=807
!!linebreak:original
2.ddd#X	.
8eeeL	.
8fff#J)	.
=808	=808
(2.eee	.
8fff#L	.
8eeeJ	.
=809	=809
8ddd#XL	.
8eee	.
8fff#	.
8eeeJ	.
8ddd#L	.
8fff#	.
8eee	.
8ddd#J)	.
=810	=810
4eee	.
(8eeL	.
8ff#J	pp
4gg')	.
4r	.
=811	=811
4r	.
(8eeL	.
8ff#J	.
4gg')	.
4r	.
=812	=812
1r	.
=813	=813
1r	.
=814	=814
4r	.
(8eeL	.
8ff#J	.
4gg')	.
(8eeL	.
8ffnJ	.
=815	=815
4gg')	.
2r	.
(8eeL	.
8ffnJ	.
=816	=816
!!linebreak:original
4gg')	.
4r	.
2r	.
=817	=817
1r	.
=818	=818
1r	.
=819	=819
4r	.
(8ddL	.
8eeJ	.
4ffn')	.
4r	.
=820	=820
1r	.
=821	=821
4r	.
(8bL	.
8ccJ	.
4dd')	.
4r	.
=822	=822
4r	.
(8GL	.
8AJ	.
4B')	.
4r	.
=823	=823
4r	.
(8AL	.
8BJ	.
4c')	.
4r	.
=824	=824
4r	.
(8BL	.
8cJ	.
4d')	.
4r	.
=825	=825
4r	.
(8cL	.
8dJ	.
4e')	.
4r	.
=826	=826
!!linebreak:original
4r	.
(8dL	.
8eJ	.
4fn')	.
4r	.
=827	=827
1r	.
=828	=828
1r	.
=829	=829
4r	.
(8dL	.
8eJ	.
4fn')	.
4r	.
=830	=830
4r	.
(8dL	.
!LO:TX:b:i:t=cresc.	!
8eJ	.
4fn')	.
(8ddL	.
8eeJ	.
=831	=831
4ffn')	.
(8dddL	.
8eeeJ	.
4fffn')	.
(8dddL	.
!LO:TX:b:i:t=piu cresc.	!
8eeeJ	.
=832	=832
4fffn')	.
4r	.
2r	.
=833	=833
2r	.
8r	.
(8GL	.
8A	.
8BJ	.
=834	=834
2.c)	fp
(8cccL	.
8dddJ	.
=835	=835
!!linebreak:original
8eee')	.
4r	.
8ddd'	.
8ccc'	.
4r	.
8aa'	.
=836	=836
2.gg	.
(8cccL	.
8dddJ	.
=837	=837
8eeeL	.
8ddd)	.
8ccc'	.
8bb'J	.
(8dddL	.
8ccc)	.
8bb'	.
8aa'J	.
=838	=838
[2gg	.
4.gg]	.
8ffn'	.
=839	=839
4ee'	.
8r	.
8dd'	.
4cc'	.
8r	.
8b'	.
=840	=840
(8qqb/	.
4a	.
8gL	.
8aJ)	.
[2b	.
=841	=841
4b]	.
!LO:TX:b:i:t=cresc.	!
(8cc#XL	.
8dd#XJ	.
4ee	.
8ff#XL	.
8dd#J)	.
=842	=842
!!linebreak:original
8ee	.
8r	.
(8eeL	.
8ffnJ	.
8gg')	.
8r	.
(8aaL	.
8bbJ	.
=843	=843
2.ccc)	.
(8cccL	fp
8dddJ	.
=844	=844
4eee')	.
8r	.
8ddd'	.
4ccc'	.
8r	.
8aa'	.
=845	=845
2.gg	.
(8cccL	.
8dddJ	.
=846	=846
8eeeL	.
8ddd)	.
8ccc'	.
8bb'J	.
(8dddL	.
8ccc)	.
8bb'	.
8aa'J	.
=847	=847
[2gg	.
4.gg]	.
8ffn	.
=848	=848
4ee'	.
8r	.
8dd'	.
4cc'	.
8r	.
8b'	.
=849	=849
!!linebreak:original
!LO:TX:b:i:t=cresc.	!
(8qqb/	.
4a	.
8gL	.
8aJ)	.
[2b	.
=850	=850
4b]	.
(>8aL	.
8bJ	.
[2cc)	.
=851	=851
4cc]	.
(8bL	.
8dd#XJ	.
8ee')	.
8r	.
(8bL	.
8eeJ	.
=852	=852
8ff#')	.
8r	.
(8bL	.
8ff#J	.
8gg')	.
8r	.
(8eeL	.
8ggJ	.
=853	=853
8aa')	.
8r	.
(8eeL	.
8aaJ	.
8bb')	.
8r	.
(8eeL	.
8bbJ	.
=854	=854
8ccc')	.
8r	.
(8aaL	.
8ff#J	.
8dd#X')	.
8r	.
(8bL	.
8dd#J	.
=855	=855
!!linebreak:original
8ee')	.
8r	f
(8bL	.
8dd#XJ	.
8ee')	.
8r	.
(8bL	.
8eeJ	.
=856	=856
8ff#')	.
8r	.
(8bL	.
8ff#J	.
8gg')	.
8r	.
(8eeL	.
8ggJ	.
=857	=857
8aa')	.
8r	.
(8eeL	.
8aaJ	.
8bb')	.
8r	.
(8eeL	.
8bbJ	.
=858	=858
8ccc')	.
8r	.
(8aaL	.
8ff#J	.
8dd#X')	.
8r	.
(8bL	.
8dd#J)	.
=859	=859
8eeL	.
8ff#	ff
8ee	.
8dd#XJ	.
8eeL	.
8gg	.
8ff#	.
8eeJ	.
=860	=860
!!linebreak:original
8dd#XL	.
8ee	.
8dd#	.
8cc#XJ	.
8dd#L	.
8ff#	.
8ee	.
8dd#J	.
=861	=861
8eeL	.
8ff#	.
8ee	.
8dd#XJ	.
8eeL	.
8gg	.
8ff#	.
8eeJ	.
=862	=862
8dd#XL	.
8ee	.
8ff#	.
8ggJ	.
8aaL	.
8bb	.
8ccc#X	.
8ddd#XJ	.
=863	=863
!LO:TX:b:i:t=sempre.	!
4eee'	.
8r	.
8ggg'	.
4fff#'	f
8r	.
8eee'	.
=864	=864
4aaa'	.
8r	.
8ggg'	.
4fff#'	.
8r	.
8bb'	.
=865	=865
4ggg'	.
8r	.
8fff#'	.
4eee'	.
8r	.
8gg'	.
=866	=866
!!linebreak:original
4fffn'	.
8r	.
8eee'	.
4ddd'	.
8r	.
8gg'	.
=867	=867
4eee'	.
8r	.
8ddd'	.
4ccc'	.
8r	.
8ee'	.
=868	=868
4ddd'	.
8r	.
8ccc'	.
4bb'	.
8r	.
8ee'	.
=869	=869
4ccc'	.
4bb'	.
(4aa	.
8gg#XL	.
8aaJ)	.
=870	=870
4bb'	.
4aa'	.
(4ggn	.
8ff#L	.
8ggJ)	.
=871	=871
4aa'	.
4gg'	.
(4ff#	.
8eeL	.
8ff#J)	.
=872	=872
4gg'	.
4ff#'	.
(4ee	.
8dd#XL	.
8eeJ)	.
=873	=873
!!linebreak:original
1ddn	p
=874	=874
[1cc	.
=875	=875
!LO:TX:b:i:t=cresc.	!
1cc]	.
=876	=876
(4b	.
8cc#XL	p
8dd#XJ	.
4ee	.
4dd#)	.
=877	=877
1ddn	.
=878	=878
[1ccn	.
=879	=879
!LO:TX:b:i:t=cresc.	!
1cc_	.
=880	=880
2cc]	.
[2b-X	p
=881	=881
2b-]	.
[2b-X	.
=882	=882
!LO:TX:b:i:t=dim.	!
2b-]	.
[2a	.
=883	=883
2a]	.
[2a-X	.
=884	=884
2a-]	.
[2g	.
=885	=885
2g]	.
[2g	.
=886	=886
2g]	.
4f#X	pp
(8d#XL	.
8eJ	.
=887	=887
!!linebreak:original
4f#')	.
8r	pp
8e'	.
4d#X'	.
(8f#L	.
8gJ	.
=888	=888
!LO:TX:b:i:t=sempre.	!
8a)	.
4r	.
8g'	.
4f#'	pp
(8eL	.
8f#J	.
=889	=889
4g)	.
8r	.
8f#'	.
4e'	.
(<8gL	.
8aJ	.
=890	=890
4b)	.
8r	.
8a'	.
4g'	.
4r	.
=891	=891
4dd#X'	.
8r	.
8ee'	.
4ff#'	.
(8ff#L	.
8ggJ	.
=892	=892
8aa')	.
4r	.
8gg'	.
8ff#'	.
8r	.
4r	.
=893	=893
4ee'	.
8r	.
8ff#'	.
4gg'	.
(8ggL	.
8aaJ	.
=894	=894
!!linebreak:original
4bb')	.
8r	.
8aa'	.
4gg'	.
4r	.
=895	=895
1r	.
=896	=896
!LO:TX:b:i:t=cresc.	!
4ddd#X'	.
4eee'	.
4fff#'	.
4r	.
=897	=897
1r	.
=898	=898
4eee'	.
4fff#'	.
4ggg'	.
(8fffnL	.
8gggJ	.
=899	=899
4aaa)	f
8r	.
8ggg'	.
4fffn'	.
(8aaaL	.
8bbb-XJ	.
=900	=900
4cccc)	.
8r	.
8bbb-X'	.
4aaa'	.
4r	.
=901	=901
4cccc	ff
4r	.
2r	.
=902	=902
1r	.
=903	=903
(4B	p
8c#XL	.
8d#XJ	.
4e	.
8f#L	.
8d#J	.
=904	=904
!!linebreak:original
4e	.
4f#	.
4g	.
4a)	.
=905	=905
[1b	.
=906	=906
!LO:TX:b:i:t=cresc.	!
(2b]	.
4cc)	.
(8ffnL	.
8ggJ	.
=907	=907
4aa')	f
8r	.
8gg'	.
4ffn'	.
(8aaL	.
8bb-XJ	.
=908	=908
4ccc')	.
8r	.
8bb-X'	.
4aa'	.
4r	.
=909	=909
4cc 4ccc	ff
4r	.
2r	.
=910	=910
1r	.
=911	=911
(4B	.
8c#XL	p
8d#XJ	.
4e	.
8f#L	.
8d#J	.
=912	=912
4e	.
4f#	p
4g	.
4a)	.
=913	=913
[1b	.
=914	=914
!!linebreak:original
(2b]	.
!LO:TX:b:i:t=cresc.	!
[2cc	.
=915	=915
2cc]	.
2dd	.
=916	=916
2ee-X	.
2een	.
=917	=917
2ffn	.
2ff#X)	.
=918	=918
[1ff#	sf
=919	=919
2ff#]	p
4ee	.
4ee	.
=920	=920
2r	.
!LO:TX:b:i:t=cresc.	!
4ee	.
4ee	.
=921	=921
2r	.
4ee	.
4ee	.
=922	=922
2r	.
4dd#X	.
4dd#	.
=923	=923
2r	.
8ggL	.
8gg	.
8gg	.
8ggJ	.
=924	=924
2r	.
2gg	.
=925	=925
2r	.
2ff#	.
=926	=926
2r	.
2ff#	.
=927	=927
2gg	.
!LO:TX:b:i:t=piu cresc.	!
2bb	.
=928	=928
!!linebreak:original
2bb	.
2bb	.
=929	=929
2bb	.
2bb	.
=930	=930
2bb	.
2bb	.
=931	=931
2.ccc	.
(8cccL	ff
8dddJ	.
=932	=932
4eee')	.
!LO:TX:b:i:t=sempre.	!
8r	.
8ddd'	.
4ccc'	ff
8r	.
8aa'	.
=933	=933
2.gg	.
(8cccL	.
8dddJ	.
=934	=934
8eeeL	.
8ddd)	.
8ccc'	.
8bb'J	.
(8dddL	.
8ccc)	.
8bb'	.
8aa'J	.
=935	=935
[2gg	.
4.gg]	.
8ffn	.
=936	=936
4ee'	.
8r	.
8dd'	.
4cc'	.
8r	.
8b'	.
=937	=937
!!linebreak:original
(<8qqb/	.
4a	.
8gL	.
8aJ	.
[2b)	.
=938	=938
4b]	.
(>8aL	.
8bJ	.
[2cc)	.
=939	=939
4cc]	.
(8bL	.
8dd#XJ	.
8ee)	.
8r	.
(8bL	.
8eeJ	.
=940	=940
8ff#)	.
8r	.
(8bL	.
8ff#J	.
8gg)	.
8r	.
(8eeL	.
8ggJ	.
=941	=941
8aa)	.
8r	.
(8eeL	.
8aaJ	.
8bb)	.
8r	.
(8eeL	.
8bbJ	.
=942	=942
4ccc)	.
(8aaL	.
8ff#J)	.
4dd#X	.
(8bL	.
8dd#J)	.
=943	=943
!!linebreak:original
4ee	sf
!LO:TX:a:B:t=Piu presto	!
4r	.
4r	.
8r	.
(8e	.
=944	=944
4ee')	.
8r	.
8ddn'	.
4cc'	.
8r	.
8a'	.
=945	=945
4g	.
4r	sf
4r	.
8r	.
(8e	.
=946	=946
4ee')	.
8r	.
8dd'	.
4cc'	.
8r	.
8a'	.
=947	=947
4g	.
4r	sf
4r	.
8r	.
(8g	.
=948	=948
8gg')	.
4r	.
8ff#'	.
4.ee'	.
8cc'	.
=949	=949
4b	.
4r	sf
4r	.
8r	.
(8gg	.
=950	=950
!!linebreak:original
4ggg')	.
8r	.
8fff#'	.
4eee'	.
8r	.
8ccc'	.
=951	=951
4bb'	.
8r	sf
8aa'	.
4gg'	.
8r	.
8ff#'	.
=952	=952
4ee'	.
8r	sf
8cc'	.
4b'	.
8r	.
8a'	.
=953	=953
4g'	.
8r	sf
8f#'	.
4e'	.
8r	.
!LO:TX:b:i:t=sempre.	!
8d#X'	.
=954	=954
4e'	.
8r	ff
8d#X'	.
4e'	.
8r	.
8e'	.
=955	=955
4fn'	.
8r	.
8e'	.
4f'	.
8r	.
8f#X'	.
=956	=956
!!linebreak:original
4g'	.
8r	.
8g#X'	.
4a'	.
8r	.
8a#X'	.
=957	=957
4b'	.
8r	.
8b'	.
4cc'	.
8r	.
8cc#X'	.
=958	=958
4dd'	.
8r	.
8dd#X'	.
4ee'	.
8r	.
8dd#'	.
=959	=959
4ee'	.
8r	.
8ff#'	.
4gg'	.
8r	.
8ff#'	.
=960	=960
4gg'	.
8r	.
8ddd#X'	.
4eee'	.
8r	.
8ddd#'	.
=961	=961
4eee'	.
8r	.
8fff#'	.
4ggg'	.
8r	.
8fff#'	.
=962	=962
!!linebreak:original
4ggg'	.
8r	.
8bbb'	.
4bbb'	.
8r	.
8bbb'	.
=963	=963
4bbb'	.
8r	.
8bbb'	.
4bbb'	.
8r	.
8bbb'	.
=964	=964
4bbb	.
4r	.
4d#X 4b 4ff#	.
4r	.
=965	=965
4e 4b 4gg	.
4r	.
4B 4f# 4dd#X	.
4r	.
=966	=966
4G 4e 4ee	.
4r	.
2r	.
=967	=967
4B 4f# 4b	.
4r	.
2r	.
=968	=968
4e	.
4r	.
2r	.
==	==
*-	*-
!!!RDF**kern: > = above
!!!RDF**kern: < = below
